(DO NOT USE WHEN CONNECTED TO A MACHINE!!)
(EXCEEDINGLY FAST HIGH-SPEED POCKETING ROUTINE)
(NC program provided by Todd Fleming)

G90
G1 X0 Y0 F200.00000
G1 Z0 F200.00000

G1 Z-6.00000

(Slow cut small circle)

G1 X1.58750 F100.00000
G1
G1 X1.58437 Y0.09968
G1 X1.57498 Y0.19897
G1 X1.55938 Y0.29747
G1 X1.53763 Y0.39480
G1 X1.50980 Y0.49056
G1 X1.47602 Y0.58440
G1 X1.43641 Y0.67592
G1 X1.39114 Y0.76478
G1 X1.34037 Y0.85063
G1 X1.28431 Y0.93311
G1 X1.22319 Y1.01191
G1 X1.15724 Y1.08672
G1 X1.08672 Y1.15724
G1 X1.01191 Y1.22319
G1 X0.93311 Y1.28431
G1 X0.85063 Y1.34037
G1 X0.76478 Y1.39114
G1 X0.67592 Y1.43641
G1 X0.58440 Y1.47602
G1 X0.49056 Y1.50980
G1 X0.39480 Y1.53763
G1 X0.29747 Y1.55938
G1 X0.19897 Y1.57498
G1 X0.09968 Y1.58437
G1 X0.00000 Y1.58750
G1 X-0.09968 Y1.58437
G1 X-0.19897 Y1.57498
G1 X-0.29747 Y1.55938
G1 X-0.39480 Y1.53763
G1 X-0.49056 Y1.50980
G1 X-0.58440 Y1.47602
G1 X-0.67592 Y1.43641
G1 X-0.76478 Y1.39114
G1 X-0.85063 Y1.34037
G1 X-0.93311 Y1.28431
G1 X-1.01191 Y1.22319
G1 X-1.08672 Y1.15724
G1 X-1.15724 Y1.08672
G1 X-1.22319 Y1.01191
G1 X-1.28431 Y0.93311
G1 X-1.34037 Y0.85063
G1 X-1.39114 Y0.76478
G1 X-1.43641 Y0.67592
G1 X-1.47602 Y0.58440
G1 X-1.50980 Y0.49056
G1 X-1.53763 Y0.39480
G1 X-1.55938 Y0.29747
G1 X-1.57498 Y0.19897
G1 X-1.58437 Y0.09968
G1 X-1.58750 Y0.00000
G1 X-1.58437 Y-0.09968
G1 X-1.57498 Y-0.19897
G1 X-1.55938 Y-0.29747
G1 X-1.53763 Y-0.39480
G1 X-1.50980 Y-0.49056
G1 X-1.47602 Y-0.58440
G1 X-1.43641 Y-0.67592
G1 X-1.39114 Y-0.76478
G1 X-1.34037 Y-0.85063
G1 X-1.28431 Y-0.93311
G1 X-1.22319 Y-1.01191
G1 X-1.15724 Y-1.08672
G1 X-1.08672 Y-1.15724
G1 X-1.01191 Y-1.22319
G1 X-0.93311 Y-1.28431
G1 X-0.85063 Y-1.34037
G1 X-0.76478 Y-1.39114
G1 X-0.67592 Y-1.43641
G1 X-0.58440 Y-1.47602
G1 X-0.49056 Y-1.50980
G1 X-0.39480 Y-1.53763
G1 X-0.29747 Y-1.55938
G1 X-0.19897 Y-1.57498
G1 X-0.09968 Y-1.58437
G1 X-0.00000 Y-1.58750
G1 X0.09968 Y-1.58437
G1 X0.19897 Y-1.57498
G1 X0.29747 Y-1.55938
G1 X0.39480 Y-1.53763
G1 X0.49056 Y-1.50980
G1 X0.58440 Y-1.47602
G1 X0.67592 Y-1.43641
G1 X0.76478 Y-1.39114
G1 X0.85063 Y-1.34037
G1 X0.93311 Y-1.28431
G1 X1.01191 Y-1.22319
G1 X1.08672 Y-1.15724
G1 X1.15724 Y-1.08672
G1 X1.22319 Y-1.01191
G1 X1.28431 Y-0.93311
G1 X1.34037 Y-0.85063
G1 X1.39114 Y-0.76478
G1 X1.43641 Y-0.67592
G1 X1.47602 Y-0.58440
G1 X1.50980 Y-0.49056
G1 X1.53763 Y-0.39480
G1 X1.55938 Y-0.29747
G1 X1.57498 Y-0.19897
G1 X1.58437 Y-0.09968
G1 X1.58750 Y-0.00000
G1 X0.00000 Y0.00000 F500.00000

(Spiral)

G1 F15000.00000
G1 X0.00549 Y0.00035
G1 X0.01091 Y0.00138
G1 X0.01621 Y0.00309
G1 X0.02131 Y0.00547
G1 X0.02615 Y0.00850
G1 X0.03068 Y0.01215
G1 X0.03484 Y0.01639
G1 X0.03856 Y0.02120
G1 X0.04179 Y0.02652
G1 X0.04450 Y0.03233
G1 X0.04662 Y0.03856
G1 X0.04811 Y0.04518
G1 X0.04895 Y0.05212
G1 X0.04908 Y0.05933
G1 X0.04849 Y0.06674
G1 X0.04715 Y0.07430
G1 X0.04504 Y0.08193
G1 X0.04215 Y0.08958
G1 X0.03847 Y0.09716
G1 X0.03399 Y0.10462
G1 X0.02872 Y0.11187
G1 X0.02267 Y0.11886
G1 X0.01585 Y0.12550
G1 X0.00829 Y0.13174
G1 X-0.00000 Y0.13750
G1 X-0.00898 Y0.14272
G1 X-0.01861 Y0.14733
G1 X-0.02886 Y0.15127
G1 X-0.03967 Y0.15449
G1 X-0.05099 Y0.15692
G1 X-0.06277 Y0.15853
G1 X-0.07494 Y0.15925
G1 X-0.08744 Y0.15905
G1 X-0.10020 Y0.15789
G1 X-0.11315 Y0.15574
G1 X-0.12621 Y0.15256
G1 X-0.13931 Y0.14835
G1 X-0.15235 Y0.14307
G1 X-0.16528 Y0.13673
G1 X-0.17798 Y0.12931
G1 X-0.19040 Y0.12083
G1 X-0.20243 Y0.11129
G1 X-0.21399 Y0.10070
G1 X-0.22501 Y0.08909
G1 X-0.23539 Y0.07648
G1 X-0.24505 Y0.06292
G1 X-0.25392 Y0.04844
G1 X-0.26192 Y0.03309
G1 X-0.26897 Y0.01692
G1 X-0.27500 Y-0.00000
G1 X-0.27995 Y-0.01761
G1 X-0.28374 Y-0.03585
G1 X-0.28634 Y-0.05462
G1 X-0.28767 Y-0.07386
G1 X-0.28769 Y-0.09348
G1 X-0.28637 Y-0.11338
G1 X-0.28366 Y-0.13348
G1 X-0.27954 Y-0.15368
G1 X-0.27398 Y-0.17388
G1 X-0.26698 Y-0.19397
G1 X-0.25851 Y-0.21386
G1 X-0.24858 Y-0.23343
G1 X-0.23720 Y-0.25259
G1 X-0.22437 Y-0.27122
G1 X-0.21013 Y-0.28922
G1 X-0.19451 Y-0.30649
G1 X-0.17753 Y-0.32292
G1 X-0.15924 Y-0.33841
G1 X-0.13970 Y-0.35285
G1 X-0.11897 Y-0.36616
G1 X-0.09711 Y-0.37823
G1 X-0.07420 Y-0.38899
G1 X-0.05032 Y-0.39833
G1 X-0.02556 Y-0.40620
G1 X-0.00000 Y-0.41250
G1 X0.02625 Y-0.41718
G1 X0.05308 Y-0.42016
G1 X0.08039 Y-0.42140
G1 X0.10806 Y-0.42085
G1 X0.13597 Y-0.41846
G1 X0.16400 Y-0.41422
G1 X0.19203 Y-0.40808
G1 X0.21992 Y-0.40003
G1 X0.24755 Y-0.39008
G1 X0.27479 Y-0.37822
G1 X0.30150 Y-0.36445
G1 X0.32756 Y-0.34881
G1 X0.35282 Y-0.33132
G1 X0.37717 Y-0.31202
G1 X0.40046 Y-0.29095
G1 X0.42259 Y-0.26818
G1 X0.44341 Y-0.24377
G1 X0.46282 Y-0.21779
G1 X0.48069 Y-0.19032
G1 X0.49693 Y-0.16146
G1 X0.51141 Y-0.13131
G1 X0.52405 Y-0.09997
G1 X0.53475 Y-0.06755
G1 X0.54343 Y-0.03419
G1 X0.55000 Y-0.00000
G1 X0.55440 Y0.03488
G1 X0.55658 Y0.07031
G1 X0.55647 Y0.10615
G1 X0.55403 Y0.14225
G1 X0.54924 Y0.17846
G1 X0.54206 Y0.21462
G1 X0.53249 Y0.25057
G1 X0.52053 Y0.28616
G1 X0.50617 Y0.32123
G1 X0.48946 Y0.35561
G1 X0.47040 Y0.38915
G1 X0.44904 Y0.42168
G1 X0.42545 Y0.45305
G1 X0.39966 Y0.48311
G1 X0.37177 Y0.51170
G1 X0.34186 Y0.53868
G1 X0.31001 Y0.56390
G1 X0.27633 Y0.58723
G1 X0.24094 Y0.60854
G1 X0.20395 Y0.62770
G1 X0.16550 Y0.64459
G1 X0.12573 Y0.65911
G1 X0.08479 Y0.67117
G1 X0.04282 Y0.68065
G1 X0.00000 Y0.68750
G1 X-0.04351 Y0.69163
G1 X-0.08755 Y0.69299
G1 X-0.13192 Y0.69153
G1 X-0.17645 Y0.68721
G1 X-0.22095 Y0.68001
G1 X-0.26523 Y0.66990
G1 X-0.30912 Y0.65690
G1 X-0.35240 Y0.64102
G1 X-0.39490 Y0.62227
G1 X-0.43643 Y0.60070
G1 X-0.47679 Y0.57634
G1 X-0.51581 Y0.54928
G1 X-0.55329 Y0.51957
G1 X-0.58906 Y0.48731
G1 X-0.62294 Y0.45259
G1 X-0.65478 Y0.41553
G1 X-0.68440 Y0.37625
G1 X-0.71165 Y0.33488
G1 X-0.73638 Y0.29155
G1 X-0.75847 Y0.24644
G1 X-0.77777 Y0.19970
G1 X-0.79418 Y0.15150
G1 X-0.80758 Y0.10202
G1 X-0.81788 Y0.05146
G1 X-0.82500 Y0.00000
G1 X-0.82886 Y-0.05215
G1 X-0.82941 Y-0.10478
G1 X-0.82659 Y-0.15768
G1 X-0.82039 Y-0.21064
G1 X-0.81078 Y-0.26344
G1 X-0.79775 Y-0.31585
G1 X-0.78132 Y-0.36766
G1 X-0.76151 Y-0.41864
G1 X-0.73836 Y-0.46858
G1 X-0.71193 Y-0.51725
G1 X-0.68229 Y-0.56444
G1 X-0.64951 Y-0.60993
G1 X-0.61370 Y-0.65352
G1 X-0.57496 Y-0.69500
G1 X-0.53342 Y-0.73418
G1 X-0.48921 Y-0.77087
G1 X-0.44249 Y-0.80489
G1 X-0.39342 Y-0.83606
G1 X-0.34217 Y-0.86423
G1 X-0.28893 Y-0.88924
G1 X-0.23389 Y-0.91095
G1 X-0.17726 Y-0.92924
G1 X-0.11925 Y-0.94400
G1 X-0.06009 Y-0.95511
G1 X-0.00000 Y-0.96250
G1 X0.06078 Y-0.96609
G1 X0.12201 Y-0.96582
G1 X0.18345 Y-0.96166
G1 X0.24484 Y-0.95357
G1 X0.30593 Y-0.94155
G1 X0.36647 Y-0.92559
G1 X0.42621 Y-0.90573
G1 X0.48489 Y-0.88200
G1 X0.54226 Y-0.85446
G1 X0.59807 Y-0.82317
G1 X0.65208 Y-0.78824
G1 X0.70406 Y-0.74974
G1 X0.75375 Y-0.70782
G1 X0.80095 Y-0.66260
G1 X0.84542 Y-0.61424
G1 X0.88697 Y-0.56289
G1 X0.92538 Y-0.50873
G1 X0.96047 Y-0.45196
G1 X0.99207 Y-0.39279
G1 X1.02001 Y-0.33142
G1 X1.04413 Y-0.26809
G1 X1.06431 Y-0.20303
G1 X1.08041 Y-0.13649
G1 X1.09234 Y-0.06872
G1 X1.10000 Y-0.00000
G1 X1.10332 Y0.06941
G1 X1.10224 Y0.13925
G1 X1.09672 Y0.20921
G1 X1.08675 Y0.27903
G1 X1.07232 Y0.34842
G1 X1.05344 Y0.41709
G1 X1.03015 Y0.48475
G1 X1.00249 Y0.55113
G1 X0.97055 Y0.61593
G1 X0.93441 Y0.67889
G1 X0.89418 Y0.73973
G1 X0.84998 Y0.79818
G1 X0.80195 Y0.85399
G1 X0.75025 Y0.90689
G1 X0.69506 Y0.95666
G1 X0.63656 Y1.00306
G1 X0.57497 Y1.04587
G1 X0.51051 Y1.08489
G1 X0.44341 Y1.11992
G1 X0.37391 Y1.15078
G1 X0.30228 Y1.17731
G1 X0.22879 Y1.19937
G1 X0.15372 Y1.21683
G1 X0.07736 Y1.22957
G1 X0.00000 Y1.23750
G1 X-0.07805 Y1.24055
G1 X-0.15648 Y1.23866
G1 X-0.23498 Y1.23179
G1 X-0.31322 Y1.21993
G1 X-0.39091 Y1.20309
G1 X-0.46770 Y1.18128
G1 X-0.54329 Y1.15456
G1 X-0.61737 Y1.12299
G1 X-0.68961 Y1.08665
G1 X-0.75971 Y1.04565
G1 X-0.82738 Y1.00013
G1 X-0.89231 Y0.95021
G1 X-0.95422 Y0.89607
G1 X-1.01284 Y0.83789
G1 X-1.06790 Y0.77588
G1 X-1.11916 Y0.71024
G1 X-1.16636 Y0.64121
G1 X-1.20930 Y0.56905
G1 X-1.24776 Y0.49402
G1 X-1.28155 Y0.41640
G1 X-1.31049 Y0.33648
G1 X-1.33444 Y0.25456
G1 X-1.35324 Y0.17095
G1 X-1.36680 Y0.08599
G1 X-1.37500 Y0.00000
G1 X-1.37778 Y-0.08668
G1 X-1.37507 Y-0.17371
G1 X-1.36685 Y-0.26074
G1 X-1.35311 Y-0.34742
G1 X-1.33386 Y-0.43340
G1 X-1.30913 Y-0.51832
G1 X-1.27897 Y-0.60184
G1 X-1.24348 Y-0.68361
G1 X-1.20275 Y-0.76329
G1 X-1.15689 Y-0.84053
G1 X-1.10607 Y-0.91502
G1 X-1.05044 Y-0.98643
G1 X-0.99020 Y-1.05445
G1 X-0.92554 Y-1.11879
G1 X-0.85670 Y-1.17914
G1 X-0.78391 Y-1.23525
G1 X-0.70746 Y-1.28686
G1 X-0.62760 Y-1.33372
G1 X-0.54464 Y-1.37560
G1 X-0.45889 Y-1.41232
G1 X-0.37067 Y-1.44367
G1 X-0.28032 Y-1.46950
G1 X-0.18819 Y-1.48966
G1 X-0.09463 Y-1.50403
G1 X-0.00000 Y-1.51250
G1 X0.09532 Y-1.51500
G1 X0.19095 Y-1.51149
G1 X0.28651 Y-1.50192
G1 X0.38161 Y-1.48629
G1 X0.47589 Y-1.46463
G1 X0.56894 Y-1.43697
G1 X0.66038 Y-1.40339
G1 X0.74985 Y-1.36397
G1 X0.83696 Y-1.31884
G1 X0.92135 Y-1.26813
G1 X1.00267 Y-1.21202
G1 X1.08056 Y-1.15068
G1 X1.15469 Y-1.08432
G1 X1.22473 Y-1.01319
G1 X1.29038 Y-0.93752
G1 X1.35135 Y-0.85759
G1 X1.40735 Y-0.77370
G1 X1.45813 Y-0.68614
G1 X1.50345 Y-0.59526
G1 X1.54309 Y-0.50138
G1 X1.57685 Y-0.40487
G1 X1.60457 Y-0.30609
G1 X1.62608 Y-0.20542
G1 X1.64125 Y-0.10326
G1 X1.65000 Y-0.00000
G1 X1.65223 Y0.10395
G1 X1.64790 Y0.20818
G1 X1.63698 Y0.31227
G1 X1.61947 Y0.41581
G1 X1.59540 Y0.51838
G1 X1.56481 Y0.61955
G1 X1.52780 Y0.71893
G1 X1.48446 Y0.81609
G1 X1.43494 Y0.91064
G1 X1.37937 Y1.00217
G1 X1.31796 Y1.09031
G1 X1.25091 Y1.17468
G1 X1.17845 Y1.25492
G1 X1.10083 Y1.33068
G1 X1.01834 Y1.40162
G1 X0.93127 Y1.46744
G1 X0.83994 Y1.52784
G1 X0.74469 Y1.58254
G1 X0.64587 Y1.63129
G1 X0.54387 Y1.67386
G1 X0.43906 Y1.71003
G1 X0.33185 Y1.73963
G1 X0.22265 Y1.76249
G1 X0.11189 Y1.77848
G1 X0.00000 Y1.78750
G1 X-0.11258 Y1.78946
G1 X-0.22541 Y1.78432
G1 X-0.33804 Y1.77205
G1 X-0.45000 Y1.75265
G1 X-0.56087 Y1.72617
G1 X-0.67017 Y1.69266
G1 X-0.77747 Y1.65221
G1 X-0.88233 Y1.60496
G1 X-0.98431 Y1.55103
G1 X-1.08299 Y1.49061
G1 X-1.17796 Y1.42391
G1 X-1.26881 Y1.35114
G1 X-1.35515 Y1.27257
G1 X-1.43662 Y1.18848
G1 X-1.51286 Y1.09916
G1 X-1.58354 Y1.00494
G1 X-1.64833 Y0.90618
G1 X-1.70696 Y0.80323
G1 X-1.75914 Y0.69649
G1 X-1.80463 Y0.58636
G1 X-1.84321 Y0.47326
G1 X-1.87470 Y0.35762
G1 X-1.89891 Y0.23989
G1 X-1.91571 Y0.12053
G1 X-1.92500 Y0.00000
G1 X-1.92669 Y-0.12122
G1 X-1.92073 Y-0.24265
G1 X-1.90711 Y-0.36380
G1 X-1.88583 Y-0.48420
G1 X-1.85694 Y-0.60336
G1 X-1.82050 Y-0.72079
G1 X-1.77663 Y-0.83602
G1 X-1.72545 Y-0.94857
G1 X-1.66713 Y-1.05799
G1 X-1.60185 Y-1.16381
G1 X-1.52985 Y-1.26561
G1 X-1.45138 Y-1.36293
G1 X-1.36670 Y-1.45539
G1 X-1.27612 Y-1.54257
G1 X-1.17998 Y-1.62410
G1 X-1.07862 Y-1.69963
G1 X-0.97242 Y-1.76883
G1 X-0.86178 Y-1.83137
G1 X-0.74711 Y-1.88698
G1 X-0.62885 Y-1.93540
G1 X-0.50745 Y-1.97639
G1 X-0.38338 Y-2.00976
G1 X-0.25712 Y-2.03532
G1 X-0.12916 Y-2.05294
G1 X-0.00000 Y-2.06250
G1 X0.12985 Y-2.06392
G1 X0.25988 Y-2.05715
G1 X0.38957 Y-2.04218
G1 X0.51839 Y-2.01901
G1 X0.64585 Y-1.98771
G1 X0.77141 Y-1.94835
G1 X0.89456 Y-1.90104
G1 X1.01481 Y-1.84594
G1 X1.13167 Y-1.78322
G1 X1.24464 Y-1.71309
G1 X1.35325 Y-1.63580
G1 X1.45706 Y-1.55161
G1 X1.55562 Y-1.46082
G1 X1.64851 Y-1.36377
G1 X1.73534 Y-1.26080
G1 X1.81573 Y-1.15230
G1 X1.88932 Y-1.03866
G1 X1.95578 Y-0.92032
G1 X2.01483 Y-0.79773
G1 X2.06617 Y-0.67134
G1 X2.10957 Y-0.54165
G1 X2.14482 Y-0.40915
G1 X2.17174 Y-0.27435
G1 X2.19017 Y-0.13779
G1 X2.20000 Y-0.00000
G1 X2.20115 Y0.13848
G1 X2.19357 Y0.27711
G1 X2.17724 Y0.41533
G1 X2.15219 Y0.55259
G1 X2.11848 Y0.68834
G1 X2.07619 Y0.82202
G1 X2.02546 Y0.95311
G1 X1.96643 Y1.08106
G1 X1.89932 Y1.20534
G1 X1.82433 Y1.32546
G1 X1.74175 Y1.44090
G1 X1.65184 Y1.55118
G1 X1.55495 Y1.65585
G1 X1.45141 Y1.75446
G1 X1.34162 Y1.84658
G1 X1.22597 Y1.93182
G1 X1.10490 Y2.00981
G1 X0.97887 Y2.08020
G1 X0.84834 Y2.14267
G1 X0.71383 Y2.19694
G1 X0.57584 Y2.24275
G1 X0.43491 Y2.27989
G1 X0.29159 Y2.30815
G1 X0.14643 Y2.32740
G1 X0.00000 Y2.33750
G1 X-0.14712 Y2.33838
G1 X-0.29435 Y2.32998
G1 X-0.44110 Y2.31230
G1 X-0.58678 Y2.28537
G1 X-0.73083 Y2.24925
G1 X-0.87264 Y2.20404
G1 X-1.01165 Y2.14987
G1 X-1.14730 Y2.08692
G1 X-1.27902 Y2.01541
G1 X-1.40628 Y1.93557
G1 X-1.52854 Y1.84769
G1 X-1.64531 Y1.75208
G1 X-1.75609 Y1.64907
G1 X-1.86040 Y1.53906
G1 X-1.95782 Y1.42244
G1 X-2.04792 Y1.29965
G1 X-2.13030 Y1.17114
G1 X-2.20461 Y1.03741
G1 X-2.27051 Y0.89896
G1 X-2.32771 Y0.75632
G1 X-2.37593 Y0.61004
G1 X-2.41495 Y0.46068
G1 X-2.44457 Y0.30882
G1 X-2.46463 Y0.15506
G1 X-2.47500 Y0.00000
G1 X-2.47561 Y-0.15575
G1 X-2.46640 Y-0.31158
G1 X-2.44737 Y-0.46686
G1 X-2.41855 Y-0.62098
G1 X-2.38002 Y-0.77332
G1 X-2.33188 Y-0.92326
G1 X-2.27428 Y-1.07020
G1 X-2.20742 Y-1.21354
G1 X-2.13151 Y-1.35269
G1 X-2.04681 Y-1.48710
G1 X-1.95364 Y-1.61619
G1 X-1.85231 Y-1.73943
G1 X-1.74320 Y-1.85632
G1 X-1.62671 Y-1.96635
G1 X-1.50326 Y-2.06906
G1 X-1.37332 Y-2.16401
G1 X-1.23738 Y-2.25079
G1 X-1.09596 Y-2.32902
G1 X-0.94958 Y-2.39836
G1 X-0.79881 Y-2.45848
G1 X-0.64423 Y-2.50911
G1 X-0.48644 Y-2.55002
G1 X-0.32605 Y-2.58099
G1 X-0.16369 Y-2.60186
G1 X-0.00000 Y-2.61250
G1 X0.16439 Y-2.61283
G1 X0.32881 Y-2.60281
G1 X0.49263 Y-2.58243
G1 X0.65517 Y-2.55173
G1 X0.81580 Y-2.51079
G1 X0.97387 Y-2.45972
G1 X1.12874 Y-2.39870
G1 X1.27978 Y-2.32791
G1 X1.42637 Y-2.24760
G1 X1.56792 Y-2.15805
G1 X1.70383 Y-2.05958
G1 X1.83356 Y-1.95254
G1 X1.95655 Y-1.83732
G1 X2.07230 Y-1.71435
G1 X2.18030 Y-1.58408
G1 X2.28011 Y-1.44700
G1 X2.37129 Y-1.30363
G1 X2.45344 Y-1.15450
G1 X2.52620 Y-1.00019
G1 X2.58925 Y-0.84130
G1 X2.64229 Y-0.67843
G1 X2.68508 Y-0.51221
G1 X2.71740 Y-0.34329
G1 X2.73908 Y-0.17233
G1 X2.75000 Y-0.00000
G1 X2.75006 Y0.17302
G1 X2.73923 Y0.34605
G1 X2.71750 Y0.51839
G1 X2.68491 Y0.68937
G1 X2.64156 Y0.85829
G1 X2.58757 Y1.02449
G1 X2.52311 Y1.18729
G1 X2.44840 Y1.34602
G1 X2.36370 Y1.50005
G1 X2.26929 Y1.64874
G1 X2.16553 Y1.79148
G1 X2.05278 Y1.92768
G1 X1.93145 Y2.05678
G1 X1.80200 Y2.17824
G1 X1.66490 Y2.29154
G1 X1.52068 Y2.39620
G1 X1.36987 Y2.49178
G1 X1.21305 Y2.57785
G1 X1.05081 Y2.65405
G1 X0.88379 Y2.72002
G1 X0.71262 Y2.77548
G1 X0.53797 Y2.82015
G1 X0.36052 Y2.85382
G1 X0.18096 Y2.87631
G1 X0.00000 Y2.88750
G1 X-0.18165 Y2.88729
G1 X-0.36328 Y2.87564
G1 X-0.54416 Y2.85256
G1 X-0.72356 Y2.81809
G1 X-0.90078 Y2.77233
G1 X-1.07511 Y2.71541
G1 X-1.24583 Y2.64752
G1 X-1.41226 Y2.56889
G1 X-1.57372 Y2.47979
G1 X-1.72956 Y2.38053
G1 X-1.87913 Y2.27147
G1 X-2.02181 Y2.15301
G1 X-2.15702 Y2.02557
G1 X-2.28419 Y1.88964
G1 X-2.40278 Y1.74572
G1 X-2.51230 Y1.59435
G1 X-2.61227 Y1.43611
G1 X-2.70227 Y1.27159
G1 X-2.78189 Y1.10143
G1 X-2.85079 Y0.92628
G1 X-2.90866 Y0.74682
G1 X-2.95521 Y0.56374
G1 X-2.99023 Y0.37775
G1 X-3.01354 Y0.18960
G1 X-3.02500 Y0.00000
G1 X-3.02452 Y-0.19029
G1 X-3.01206 Y-0.38051
G1 X-2.98763 Y-0.56992
G1 X-2.95127 Y-0.75776
G1 X-2.90310 Y-0.94327
G1 X-2.84326 Y-1.12572
G1 X-2.77194 Y-1.30437
G1 X-2.68939 Y-1.47850
G1 X-2.59589 Y-1.64740
G1 X-2.49177 Y-1.81038
G1 X-2.37742 Y-1.96677
G1 X-2.25324 Y-2.11594
G1 X-2.11970 Y-2.25725
G1 X-1.97729 Y-2.39013
G1 X-1.82654 Y-2.51402
G1 X-1.66803 Y-2.62839
G1 X-1.50235 Y-2.73276
G1 X-1.33013 Y-2.82668
G1 X-1.15205 Y-2.90974
G1 X-0.96877 Y-2.98156
G1 X-0.78101 Y-3.04184
G1 X-0.58950 Y-3.09028
G1 X-0.39499 Y-3.12665
G1 X-0.19823 Y-3.15077
G1 X0.00000 Y-3.16250
G1 X0.19892 Y-3.16175
G1 X0.39775 Y-3.14848
G1 X0.59569 Y-3.12269
G1 X0.79195 Y-3.08445
G1 X0.98576 Y-3.03387
G1 X1.17634 Y-2.97110
G1 X1.36292 Y-2.89635
G1 X1.54474 Y-2.80988
G1 X1.72108 Y-2.71198
G1 X1.89120 Y-2.60301
G1 X2.05442 Y-2.48336
G1 X2.21006 Y-2.35348
G1 X2.35748 Y-2.21383
G1 X2.49608 Y-2.06494
G1 X2.62526 Y-1.90736
G1 X2.74449 Y-1.74170
G1 X2.85325 Y-1.56859
G1 X2.95109 Y-1.38868
G1 X3.03758 Y-1.20266
G1 X3.11233 Y-1.01126
G1 X3.17502 Y-0.81521
G1 X3.22534 Y-0.61527
G1 X3.26307 Y-0.41222
G1 X3.28800 Y-0.20686
G1 X3.30000 Y0.00000
G1 X3.29898 Y0.20755
G1 X3.28489 Y0.41498
G1 X3.25776 Y0.62145
G1 X3.21763 Y0.82615
G1 X3.16464 Y1.02825
G1 X3.09895 Y1.22696
G1 X3.02077 Y1.42146
G1 X2.93037 Y1.61098
G1 X2.82808 Y1.79475
G1 X2.71425 Y1.97202
G1 X2.58931 Y2.14206
G1 X2.45371 Y2.30419
G1 X2.30795 Y2.45772
G1 X2.15258 Y2.60202
G1 X1.98818 Y2.73650
G1 X1.81538 Y2.86058
G1 X1.63483 Y2.97375
G1 X1.44722 Y3.07551
G1 X1.25328 Y3.16542
G1 X1.05375 Y3.24310
G1 X0.84940 Y3.30820
G1 X0.64103 Y3.36040
G1 X0.42945 Y3.39948
G1 X0.21550 Y3.42523
G1 X-0.00000 Y3.43750
G1 X-0.21619 Y3.43621
G1 X-0.43221 Y3.42131
G1 X-0.64722 Y3.39282
G1 X-0.86034 Y3.35081
G1 X-1.07074 Y3.29541
G1 X-1.27758 Y3.22679
G1 X-1.48001 Y3.14518
G1 X-1.67723 Y3.05086
G1 X-1.86843 Y2.94417
G1 X-2.05284 Y2.82549
G1 X-2.22971 Y2.69526
G1 X-2.39831 Y2.55394
G1 X-2.55795 Y2.40208
G1 X-2.70797 Y2.24023
G1 X-2.84774 Y2.06900
G1 X-2.97668 Y1.88906
G1 X-3.09424 Y1.70107
G1 X-3.19992 Y1.50577
G1 X-3.29327 Y1.30390
G1 X-3.37387 Y1.09624
G1 X-3.44138 Y0.88360
G1 X-3.49547 Y0.66680
G1 X-3.53590 Y0.44669
G1 X-3.56246 Y0.22413
G1 X-3.57500 Y-0.00000
G1 X-3.57343 Y-0.22482
G1 X-3.55772 Y-0.44944
G1 X-3.52788 Y-0.67298
G1 X-3.48399 Y-0.89454
G1 X-3.42618 Y-1.11323
G1 X-3.35463 Y-1.32819
G1 X-3.26959 Y-1.53855
G1 X-3.17135 Y-1.74347
G1 X-3.06027 Y-1.94210
G1 X-2.93673 Y-2.13366
G1 X-2.80120 Y-2.31735
G1 X-2.65417 Y-2.49244
G1 X-2.49620 Y-2.65818
G1 X-2.32787 Y-2.81391
G1 X-2.14982 Y-2.95898
G1 X-1.96273 Y-3.09277
G1 X-1.76731 Y-3.21473
G1 X-1.56431 Y-3.32433
G1 X-1.35451 Y-3.42111
G1 X-1.13873 Y-3.50464
G1 X-0.91779 Y-3.57456
G1 X-0.69256 Y-3.63053
G1 X-0.46392 Y-3.67231
G1 X-0.23276 Y-3.69969
G1 X0.00000 Y-3.71250
G1 X0.23346 Y-3.71066
G1 X0.46668 Y-3.69414
G1 X0.69874 Y-3.66295
G1 X0.92873 Y-3.61717
G1 X1.15572 Y-3.55695
G1 X1.37881 Y-3.48248
G1 X1.59710 Y-3.39401
G1 X1.80971 Y-3.29185
G1 X2.01578 Y-3.17636
G1 X2.21448 Y-3.04797
G1 X2.40500 Y-2.90715
G1 X2.58656 Y-2.75441
G1 X2.75842 Y-2.59033
G1 X2.91986 Y-2.41552
G1 X3.07022 Y-2.23065
G1 X3.20887 Y-2.03641
G1 X3.33522 Y-1.83355
G1 X3.44875 Y-1.62286
G1 X3.54896 Y-1.40513
G1 X3.63541 Y-1.18122
G1 X3.70774 Y-0.95198
G1 X3.76560 Y-0.71833
G1 X3.80873 Y-0.48115
G1 X3.83691 Y-0.24140
G1 X3.85000 Y0.00000
G1 X3.84789 Y0.24209
G1 X3.83055 Y0.48391
G1 X3.79801 Y0.72451
G1 X3.75035 Y0.96293
G1 X3.68772 Y1.19821
G1 X3.61032 Y1.42943
G1 X3.51842 Y1.65564
G1 X3.41234 Y1.87595
G1 X3.29246 Y2.08946
G1 X3.15921 Y2.29530
G1 X3.01309 Y2.49265
G1 X2.85464 Y2.68069
G1 X2.68445 Y2.85865
G1 X2.50316 Y3.02581
G1 X2.31147 Y3.18146
G1 X2.11009 Y3.32496
G1 X1.89980 Y3.45572
G1 X1.68140 Y3.57316
G1 X1.45575 Y3.67680
G1 X1.22371 Y3.76618
G1 X0.98618 Y3.84092
G1 X0.74409 Y3.90066
G1 X0.49839 Y3.94514
G1 X0.25003 Y3.97414
G1 X-0.00000 Y3.98750
G1 X-0.25072 Y3.98512
G1 X-0.50114 Y3.96697
G1 X-0.75027 Y3.93308
G1 X-0.99712 Y3.88353
G1 X-1.24070 Y3.81849
G1 X-1.48004 Y3.73817
G1 X-1.71419 Y3.64283
G1 X-1.94219 Y3.53283
G1 X-2.16313 Y3.40855
G1 X-2.37612 Y3.27045
G1 X-2.58029 Y3.11904
G1 X-2.77481 Y2.95487
G1 X-2.95888 Y2.77858
G1 X-3.13175 Y2.59081
G1 X-3.29270 Y2.39229
G1 X-3.44106 Y2.18376
G1 X-3.57621 Y1.96604
G1 X-3.69758 Y1.73995
G1 X-3.80465 Y1.50637
G1 X-3.89695 Y1.26620
G1 X-3.97410 Y1.02037
G1 X-4.03573 Y0.76986
G1 X-4.08156 Y0.51562
G1 X-4.11137 Y0.25867
G1 X-4.12500 Y-0.00000
G1 X-4.12235 Y-0.25936
G1 X-4.10339 Y-0.51838
G1 X-4.06814 Y-0.77604
G1 X-4.01671 Y-1.03132
G1 X-3.94926 Y-1.28319
G1 X-3.86601 Y-1.53066
G1 X-3.76725 Y-1.77273
G1 X-3.65332 Y-2.00843
G1 X-3.52465 Y-2.23681
G1 X-3.38169 Y-2.45694
G1 X-3.22498 Y-2.66794
G1 X-3.05511 Y-2.86894
G1 X-2.87270 Y-3.05912
G1 X-2.67846 Y-3.23770
G1 X-2.47311 Y-3.40394
G1 X-2.25744 Y-3.55715
G1 X-2.03228 Y-3.69670
G1 X-1.79849 Y-3.82199
G1 X-1.55698 Y-3.93249
G1 X-1.30869 Y-4.02772
G1 X-1.05457 Y-4.10728
G1 X-0.79562 Y-4.17079
G1 X-0.53285 Y-4.21798
G1 X-0.26730 Y-4.24860
G1 X0.00000 Y-4.26250
G1 X0.26799 Y-4.25958
G1 X0.53561 Y-4.23980
G1 X0.80180 Y-4.20321
G1 X1.06551 Y-4.14989
G1 X1.32568 Y-4.08003
G1 X1.58128 Y-3.99385
G1 X1.83128 Y-3.89166
G1 X2.07467 Y-3.77381
G1 X2.31049 Y-3.64074
G1 X2.53776 Y-3.49293
G1 X2.75558 Y-3.33093
G1 X2.96306 Y-3.15534
G1 X3.15935 Y-2.96683
G1 X3.34364 Y-2.76610
G1 X3.51518 Y-2.55393
G1 X3.67325 Y-2.33111
G1 X3.81719 Y-2.09852
G1 X3.94640 Y-1.85704
G1 X4.06033 Y-1.60760
G1 X4.15849 Y-1.35118
G1 X4.24046 Y-1.08876
G1 X4.30586 Y-0.82139
G1 X4.35439 Y-0.55009
G1 X4.38583 Y-0.27593
G1 X4.40000 Y0.00000
G1 X4.39681 Y0.27662
G1 X4.37622 Y0.55284
G1 X4.33827 Y0.82757
G1 X4.28307 Y1.09971
G1 X4.21080 Y1.36817
G1 X4.12170 Y1.63190
G1 X4.01607 Y1.88982
G1 X3.89431 Y2.14091
G1 X3.75684 Y2.38416
G1 X3.60417 Y2.61858
G1 X3.43687 Y2.84323
G1 X3.25557 Y3.05719
G1 X3.06095 Y3.25958
G1 X2.85375 Y3.44959
G1 X2.63475 Y3.62642
G1 X2.40479 Y3.78934
G1 X2.16476 Y3.93768
G1 X1.91558 Y4.07082
G1 X1.65822 Y4.18818
G1 X1.39367 Y4.28926
G1 X1.12296 Y4.37364
G1 X0.84715 Y4.44092
G1 X0.56732 Y4.49081
G1 X0.28457 Y4.52306
G1 X-0.00000 Y4.53750
G1 X-0.28526 Y4.53404
G1 X-0.57008 Y4.51263
G1 X-0.85333 Y4.47334
G1 X-1.13390 Y4.41625
G1 X-1.41066 Y4.34157
G1 X-1.68251 Y4.24954
G1 X-1.94837 Y4.14049
G1 X-2.20715 Y4.01480
G1 X-2.45784 Y3.87293
G1 X-2.69940 Y3.71541
G1 X-2.93088 Y3.54282
G1 X-3.15131 Y3.35581
G1 X-3.35982 Y3.15508
G1 X-3.55553 Y2.94139
G1 X-3.73766 Y2.71557
G1 X-3.90544 Y2.47847
G1 X-4.05818 Y2.23100
G1 X-4.19523 Y1.97413
G1 X-4.31602 Y1.70883
G1 X-4.42004 Y1.43616
G1 X-4.50682 Y1.15715
G1 X-4.57599 Y0.87292
G1 X-4.62722 Y0.58455
G1 X-4.66029 Y0.29320
G1 X-4.67500 Y-0.00000
G1 X-4.67126 Y-0.29389
G1 X-4.64905 Y-0.58731
G1 X-4.60840 Y-0.87910
G1 X-4.54944 Y-1.16810
G1 X-4.47234 Y-1.45315
G1 X-4.37739 Y-1.73313
G1 X-4.26490 Y-2.00691
G1 X-4.13529 Y-2.27340
G1 X-3.98903 Y-2.53151
G1 X-3.82665 Y-2.78022
G1 X-3.64877 Y-3.01852
G1 X-3.45604 Y-3.24544
G1 X-3.24920 Y-3.46005
G1 X-3.02904 Y-3.66148
G1 X-2.79639 Y-3.84890
G1 X-2.55214 Y-4.02153
G1 X-2.29724 Y-4.17867
G1 X-2.03267 Y-4.31964
G1 X-1.75945 Y-4.44387
G1 X-1.47865 Y-4.55081
G1 X-1.19135 Y-4.64000
G1 X-0.89868 Y-4.71105
G1 X-0.60179 Y-4.76364
G1 X-0.30183 Y-4.79751
G1 X0.00000 Y-4.81250
G1 X0.30252 Y-4.80849
G1 X0.60454 Y-4.78547
G1 X0.90486 Y-4.74347
G1 X1.20229 Y-4.68262
G1 X1.49564 Y-4.60311
G1 X1.78375 Y-4.50523
G1 X2.06546 Y-4.38932
G1 X2.33964 Y-4.25578
G1 X2.60519 Y-4.10512
G1 X2.86104 Y-3.93789
G1 X3.10617 Y-3.75471
G1 X3.33956 Y-3.55627
G1 X3.56028 Y-3.34333
G1 X3.76742 Y-3.11668
G1 X3.96014 Y-2.87721
G1 X4.13763 Y-2.62582
G1 X4.29916 Y-2.36348
G1 X4.44406 Y-2.09121
G1 X4.57171 Y-1.81007
G1 X4.68158 Y-1.52114
G1 X4.77318 Y-1.22554
G1 X4.84611 Y-0.92445
G1 X4.90005 Y-0.61902
G1 X4.93474 Y-0.31047
G1 X4.95000 Y0.00000
G1 X4.94572 Y0.31116
G1 X4.92188 Y0.62178
G1 X4.87853 Y0.93063
G1 X4.81580 Y1.23649
G1 X4.73388 Y1.53813
G1 X4.63308 Y1.83436
G1 X4.51373 Y2.12400
G1 X4.37628 Y2.40588
G1 X4.22122 Y2.67887
G1 X4.04913 Y2.94187
G1 X3.86066 Y3.19381
G1 X3.65651 Y3.43369
G1 X3.43745 Y3.66052
G1 X3.20433 Y3.87337
G1 X2.95803 Y4.07138
G1 X2.69950 Y4.25372
G1 X2.42972 Y4.41965
G1 X2.14976 Y4.56847
G1 X1.86069 Y4.69956
G1 X1.56363 Y4.81235
G1 X1.25974 Y4.90636
G1 X0.95021 Y4.98118
G1 X0.63625 Y5.03647
G1 X0.31910 Y5.07197
G1 X-0.00000 Y5.08750
G1 X-0.31979 Y5.08295
G1 X-0.63901 Y5.05830
G1 X-0.95639 Y5.01359
G1 X-1.27068 Y4.94898
G1 X-1.58062 Y4.86465
G1 X-1.88498 Y4.76092
G1 X-2.18254 Y4.63814
G1 X-2.47212 Y4.49677
G1 X-2.75254 Y4.33731
G1 X-3.02269 Y4.16037
G1 X-3.28146 Y3.96660
G1 X-3.52781 Y3.75674
G1 X-3.76075 Y3.53158
G1 X-3.97932 Y3.29198
G1 X-4.18262 Y3.03885
G1 X-4.36982 Y2.77317
G1 X-4.54014 Y2.49597
G1 X-4.69289 Y2.20830
G1 X-4.82740 Y1.91130
G1 X-4.94312 Y1.60612
G1 X-5.03954 Y1.29393
G1 X-5.11624 Y0.97598
G1 X-5.17289 Y0.65349
G1 X-5.20920 Y0.32774
G1 X-5.22500 Y-0.00000
G1 X-5.22018 Y-0.32843
G1 X-5.19471 Y-0.65624
G1 X-5.14866 Y-0.98216
G1 X-5.08216 Y-1.30488
G1 X-4.99542 Y-1.62311
G1 X-4.88876 Y-1.93560
G1 X-4.76256 Y-2.24109
G1 X-4.61726 Y-2.53836
G1 X-4.45341 Y-2.82622
G1 X-4.27161 Y-3.10351
G1 X-4.07255 Y-3.36910
G1 X-3.85697 Y-3.62194
G1 X-3.62570 Y-3.86098
G1 X-3.37962 Y-4.08526
G1 X-3.11967 Y-4.29386
G1 X-2.84685 Y-4.48591
G1 X-2.56221 Y-4.66064
G1 X-2.26685 Y-4.81730
G1 X-1.96192 Y-4.95524
G1 X-1.64861 Y-5.07389
G1 X-1.32813 Y-5.17272
G1 X-1.00174 Y-5.25131
G1 X-0.67072 Y-5.30930
G1 X-0.33637 Y-5.34643
G1 X0.00000 Y-5.36250
G1 X0.33706 Y-5.35741
G1 X0.67348 Y-5.33113
G1 X1.00792 Y-5.28372
G1 X1.33907 Y-5.21534
G1 X1.66560 Y-5.12619
G1 X1.98622 Y-5.01661
G1 X2.29963 Y-4.88697
G1 X2.60460 Y-4.73775
G1 X2.89989 Y-4.56950
G1 X3.18433 Y-4.38285
G1 X3.45675 Y-4.17849
G1 X3.71606 Y-3.95721
G1 X3.96122 Y-3.71983
G1 X4.19121 Y-3.46727
G1 X4.40510 Y-3.20049
G1 X4.60201 Y-2.92052
G1 X4.78113 Y-2.62845
G1 X4.94171 Y-2.32539
G1 X5.08309 Y-2.01254
G1 X5.20466 Y-1.69110
G1 X5.30590 Y-1.36232
G1 X5.38637 Y-1.02751
G1 X5.44572 Y-0.68795
G1 X5.48366 Y-0.34500
G1 X5.50000 Y0.00000
G1 X5.49464 Y0.34569
G1 X5.46754 Y0.69071
G1 X5.41879 Y1.03369
G1 X5.34852 Y1.37327
G1 X5.25696 Y1.70809
G1 X5.14445 Y2.03683
G1 X5.01138 Y2.35818
G1 X4.85824 Y2.67084
G1 X4.68560 Y2.97357
G1 X4.49409 Y3.26515
G1 X4.28444 Y3.54440
G1 X4.05744 Y3.81019
G1 X3.81395 Y4.06145
G1 X3.55491 Y4.29715
G1 X3.28131 Y4.51634
G1 X2.99420 Y4.71810
G1 X2.69469 Y4.90162
G1 X2.38394 Y5.06613
G1 X2.06315 Y5.21093
G1 X1.73359 Y5.33543
G1 X1.39652 Y5.43908
G1 X1.05327 Y5.52144
G1 X0.70519 Y5.58213
G1 X0.35364 Y5.62089
G1 X-0.00000 Y5.63750
G1 X-0.35433 Y5.63186
G1 X-0.70794 Y5.60396
G1 X-1.05945 Y5.55385
G1 X-1.40746 Y5.48170
G1 X-1.75058 Y5.38774
G1 X-2.08745 Y5.27230
G1 X-2.41672 Y5.13580
G1 X-2.73708 Y4.97874
G1 X-3.04725 Y4.80169
G1 X-3.34597 Y4.60533
G1 X-3.63204 Y4.39038
G1 X-3.90431 Y4.15767
G1 X-4.16168 Y3.90808
G1 X-4.40310 Y3.64256
G1 X-4.62758 Y3.36213
G1 X-4.83420 Y3.06788
G1 X-5.02211 Y2.76093
G1 X-5.19054 Y2.44248
G1 X-5.33878 Y2.11377
G1 X-5.46620 Y1.77608
G1 X-5.57226 Y1.43071
G1 X-5.65650 Y1.07904
G1 X-5.71855 Y0.72242
G1 X-5.75812 Y0.36227
G1 X-5.77500 Y-0.00000
G1 X-5.76909 Y-0.36296
G1 X-5.74038 Y-0.72518
G1 X-5.68892 Y-1.08522
G1 X-5.61488 Y-1.44166
G1 X-5.51851 Y-1.79307
G1 X-5.40014 Y-2.13807
G1 X-5.26021 Y-2.47527
G1 X-5.09923 Y-2.80332
G1 X-4.91779 Y-3.12092
G1 X-4.71657 Y-3.42679
G1 X-4.49633 Y-3.71969
G1 X-4.25791 Y-3.99844
G1 X-4.00220 Y-4.26192
G1 X-3.73021 Y-4.50904
G1 X-3.44295 Y-4.73882
G1 X-3.14155 Y-4.95029
G1 X-2.82717 Y-5.14261
G1 X-2.50103 Y-5.31495
G1 X-2.16439 Y-5.46662
G1 X-1.81857 Y-5.59697
G1 X-1.46491 Y-5.70544
G1 X-1.10480 Y-5.79157
G1 X-0.73965 Y-5.85496
G1 X-0.37090 Y-5.89534
G1 X0.00000 Y-5.91250
G1 X0.37159 Y-5.90632
G1 X0.74241 Y-5.87679
G1 X1.11098 Y-5.82398
G1 X1.47585 Y-5.74806
G1 X1.83556 Y-5.64928
G1 X2.18868 Y-5.52799
G1 X2.53381 Y-5.38463
G1 X2.86957 Y-5.21972
G1 X3.19460 Y-5.03388
G1 X3.50761 Y-4.82781
G1 X3.80733 Y-4.60228
G1 X4.09256 Y-4.35814
G1 X4.36215 Y-4.09633
G1 X4.61499 Y-3.81785
G1 X4.85006 Y-3.52377
G1 X5.06639 Y-3.21523
G1 X5.26310 Y-2.89341
G1 X5.43937 Y-2.55957
G1 X5.59447 Y-2.21501
G1 X5.72774 Y-1.86105
G1 X5.83862 Y-1.49910
G1 X5.92663 Y-1.13057
G1 X5.99138 Y-0.75689
G1 X6.03257 Y-0.37954
G1 X6.05000 Y0.00000
G1 X6.04355 Y0.38023
G1 X6.01321 Y0.75964
G1 X5.95905 Y1.13675
G1 X5.88124 Y1.51004
G1 X5.78005 Y1.87805
G1 X5.65583 Y2.23930
G1 X5.50904 Y2.59236
G1 X5.34021 Y2.93581
G1 X5.14998 Y3.26828
G1 X4.93905 Y3.58843
G1 X4.70822 Y3.89498
G1 X4.45837 Y4.18669
G1 X4.19046 Y4.46238
G1 X3.90550 Y4.72093
G1 X3.60459 Y4.96130
G1 X3.28890 Y5.18248
G1 X2.95965 Y5.38359
G1 X2.61812 Y5.56378
G1 X2.26562 Y5.72231
G1 X1.90354 Y5.85851
G1 X1.53330 Y5.97180
G1 X1.15633 Y6.06169
G1 X0.77412 Y6.12780
G1 X0.38817 Y6.16980
G1 X-0.00000 Y6.18750
G1 X-0.38886 Y6.18078
G1 X-0.77688 Y6.14962
G1 X-1.16251 Y6.09411
G1 X-1.54424 Y6.01442
G1 X-1.92054 Y5.91082
G1 X-2.28992 Y5.78367
G1 X-2.65090 Y5.63345
G1 X-3.00205 Y5.46071
G1 X-3.34195 Y5.26607
G1 X-3.66925 Y5.05029
G1 X-3.98263 Y4.81417
G1 X-4.28082 Y4.55861
G1 X-4.56261 Y4.28458
G1 X-4.82688 Y3.99314
G1 X-5.07254 Y3.68541
G1 X-5.29858 Y3.36258
G1 X-5.50408 Y3.02589
G1 X-5.68820 Y2.67666
G1 X-5.85015 Y2.31624
G1 X-5.98928 Y1.94603
G1 X-6.10498 Y1.56749
G1 X-6.19676 Y1.18210
G1 X-6.26421 Y0.79135
G1 X-6.30703 Y0.39680
G1 X-6.32500 Y-0.00000
G1 X-6.31801 Y-0.39750
G1 X-6.28604 Y-0.79411
G1 X-6.22917 Y-1.18828
G1 X-6.14760 Y-1.57843
G1 X-6.04159 Y-1.96303
G1 X-5.91152 Y-2.34054
G1 X-5.75787 Y-2.70945
G1 X-5.58120 Y-3.06829
G1 X-5.38217 Y-3.41563
G1 X-5.16153 Y-3.75007
G1 X-4.92011 Y-4.07027
G1 X-4.65884 Y-4.37494
G1 X-4.37871 Y-4.66285
G1 X-4.08079 Y-4.93283
G1 X-3.76623 Y-5.18378
G1 X-3.43626 Y-5.41467
G1 X-3.09214 Y-5.62457
G1 X-2.73521 Y-5.81261
G1 X-2.36686 Y-5.97800
G1 X-1.98852 Y-6.12005
G1 X-1.60169 Y-6.23816
G1 X-1.20786 Y-6.33182
G1 X-0.80859 Y-6.40063
G1 X-0.40544 Y-6.44426
G1 X0.00000 Y-6.46250
G1 X0.40613 Y-6.45524
G1 X0.81134 Y-6.42245
G1 X1.21404 Y-6.36424
G1 X1.61263 Y-6.28078
G1 X2.00552 Y-6.17236
G1 X2.39115 Y-6.03936
G1 X2.76799 Y-5.88228
G1 X3.13453 Y-5.70169
G1 X3.48930 Y-5.49826
G1 X3.83089 Y-5.27277
G1 X4.15792 Y-5.02606
G1 X4.46907 Y-4.75907
G1 X4.76308 Y-4.47283
G1 X5.03877 Y-4.16843
G1 X5.29502 Y-3.84705
G1 X5.53077 Y-3.50993
G1 X5.74507 Y-3.15838
G1 X5.93702 Y-2.79375
G1 X6.10584 Y-2.41747
G1 X6.25082 Y-2.03101
G1 X6.37134 Y-1.63588
G1 X6.46689 Y-1.23362
G1 X6.53704 Y-0.82582
G1 X6.58149 Y-0.41407
G1 X6.60000 Y0.00000
G1 X6.59247 Y0.41476
G1 X6.55887 Y0.82858
G1 X6.49930 Y1.23981
G1 X6.41396 Y1.64682
G1 X6.30313 Y2.04801
G1 X6.16721 Y2.44177
G1 X6.00669 Y2.82654
G1 X5.82218 Y3.20077
G1 X5.61436 Y3.56298
G1 X5.38401 Y3.91171
G1 X5.13200 Y4.24556
G1 X4.85930 Y4.56319
G1 X4.56696 Y4.86331
G1 X4.25608 Y5.14472
G1 X3.92787 Y5.40626
G1 X3.58361 Y5.64687
G1 X3.22462 Y5.86556
G1 X2.85230 Y6.06144
G1 X2.46809 Y6.23369
G1 X2.07350 Y6.38159
G1 X1.67008 Y6.50452
G1 X1.25939 Y6.60195
G1 X0.84305 Y6.67346
G1 X0.42271 Y6.71872
G1 X-0.00000 Y6.73750
G1 X-0.42340 Y6.72969
G1 X-0.84581 Y6.69529
G1 X-1.26557 Y6.63437
G1 X-1.68102 Y6.54714
G1 X-2.09050 Y6.43390
G1 X-2.49239 Y6.29505
G1 X-2.88508 Y6.13111
G1 X-3.26701 Y5.94267
G1 X-3.63666 Y5.73045
G1 X-3.99253 Y5.49525
G1 X-4.33321 Y5.23795
G1 X-4.65732 Y4.95954
G1 X-4.96355 Y4.66108
G1 X-5.25066 Y4.34373
G1 X-5.51750 Y4.00870
G1 X-5.76296 Y3.65729
G1 X-5.98605 Y3.29086
G1 X-6.18585 Y2.91084
G1 X-6.36153 Y2.51871
G1 X-6.51236 Y2.11599
G1 X-6.63770 Y1.70427
G1 X-6.73702 Y1.28515
G1 X-6.80988 Y0.86029
G1 X-6.85594 Y0.43134
G1 X-6.87500 Y-0.00000
G1 X-6.86692 Y-0.43203
G1 X-6.83170 Y-0.86304
G1 X-6.76943 Y-1.29134
G1 X-6.68032 Y-1.71521
G1 X-6.56467 Y-2.13299
G1 X-6.42290 Y-2.54300
G1 X-6.25552 Y-2.94363
G1 X-6.06317 Y-3.33325
G1 X-5.84655 Y-3.71033
G1 X-5.60649 Y-4.07335
G1 X-5.34389 Y-4.42085
G1 X-5.05977 Y-4.75144
G1 X-4.75521 Y-5.06378
G1 X-4.43137 Y-5.35661
G1 X-4.08952 Y-5.62874
G1 X-3.73096 Y-5.87906
G1 X-3.35710 Y-6.10654
G1 X-2.96938 Y-6.31026
G1 X-2.56933 Y-6.48937
G1 X-2.15848 Y-6.64313
G1 X-1.73847 Y-6.77088
G1 X-1.31092 Y-6.87208
G1 X-0.87752 Y-6.94629
G1 X-0.43997 Y-6.99317
G1 X0.00000 Y-7.01250
G1 X0.44066 Y-7.00415
G1 X0.88028 Y-6.96812
G1 X1.31710 Y-6.90450
G1 X1.74941 Y-6.81350
G1 X2.17548 Y-6.69544
G1 X2.59362 Y-6.55074
G1 X3.00217 Y-6.37994
G1 X3.39949 Y-6.18366
G1 X3.78401 Y-5.96264
G1 X4.15417 Y-5.71773
G1 X4.50850 Y-5.44984
G1 X4.84557 Y-5.16000
G1 X5.16401 Y-4.84933
G1 X5.46255 Y-4.51902
G1 X5.73998 Y-4.17034
G1 X5.99515 Y-3.80464
G1 X6.22704 Y-3.42334
G1 X6.43468 Y-3.02793
G1 X6.61722 Y-2.61994
G1 X6.77390 Y-2.20097
G1 X6.90406 Y-1.77266
G1 X7.00715 Y-1.33668
G1 X7.08271 Y-0.89475
G1 X7.13040 Y-0.44861
G1 X7.15000 Y0.00000
G1 X7.14138 Y0.44930
G1 X7.10453 Y0.89751
G1 X7.03956 Y1.34287
G1 X6.94668 Y1.78360
G1 X6.82621 Y2.21797
G1 X6.67858 Y2.64424
G1 X6.50435 Y3.06071
G1 X6.30415 Y3.46574
G1 X6.07874 Y3.85769
G1 X5.82897 Y4.23499
G1 X5.55579 Y4.59615
G1 X5.26024 Y4.93969
G1 X4.94346 Y5.26425
G1 X4.60666 Y5.56850
G1 X4.25116 Y5.85122
G1 X3.87831 Y6.11125
G1 X3.48958 Y6.34753
G1 X3.08647 Y6.55909
G1 X2.67056 Y6.74506
G1 X2.24346 Y6.90467
G1 X1.80686 Y7.03724
G1 X1.36245 Y7.14221
G1 X0.91199 Y7.21912
G1 X0.45724 Y7.26763
G1 X-0.00000 Y7.28750
G1 X-0.45793 Y7.27861
G1 X-0.91474 Y7.24095
G1 X-1.36863 Y7.17463
G1 X-1.81780 Y7.07986
G1 X-2.26046 Y6.95698
G1 X-2.69486 Y6.80643
G1 X-3.11926 Y6.62876
G1 X-3.53198 Y6.42464
G1 X-3.93136 Y6.19483
G1 X-4.31581 Y5.94021
G1 X-4.68379 Y5.66173
G1 X-5.03382 Y5.36047
G1 X-5.36448 Y5.03758
G1 X-5.67444 Y4.69431
G1 X-5.96246 Y4.33198
G1 X-6.22734 Y3.95199
G1 X-6.46802 Y3.55582
G1 X-6.68351 Y3.14502
G1 X-6.87291 Y2.72118
G1 X-7.03544 Y2.28595
G1 X-7.17042 Y1.84105
G1 X-7.27728 Y1.38821
G1 X-7.35554 Y0.92922 F1500.00000
G1 X-7.40486 Y0.46587
G1 X-7.42500 Y-0.00000
G1 X-7.41584 Y-0.46656
G1 X-7.37736 Y-0.93198
G1 X-7.30969 Y-1.39440
G1 X-7.21304 Y-1.85199
G1 X-7.08775 Y-2.30295
G1 X-6.93427 Y-2.74547
G1 X-6.75318 Y-3.17780
G1 X-6.54513 Y-3.59822
G1 X-6.31093 Y-4.00504
G1 X-6.05145 Y-4.39663
G1 X-5.76768 Y-4.77144
G1 X-5.46070 Y-5.12794
G1 X-5.13171 Y-5.46471
G1 X-4.78195 Y-5.78039
G1 X-4.41280 Y-6.07370
G1 X-4.02567 Y-6.34344
G1 X-3.62206 Y-6.58851
G1 X-3.20356 Y-6.80792
G1 X-2.77179 Y-7.00075
G1 X-2.32844 Y-7.16621
G1 X-1.87525 Y-7.30360
G1 X-1.41398 Y-7.41234
G1 X-0.94645 Y-7.49195
G1 X-0.47451 Y-7.54209
G1 X0.00000 Y-7.56250
G1 X0.47520 Y-7.55307
G1 X0.94921 Y-7.51378
G1 X1.42016 Y-7.44476
G1 X1.88619 Y-7.34622
G1 X2.34544 Y-7.21852
G1 X2.79609 Y-7.06212
G1 X3.23635 Y-6.87759
G1 X3.66446 Y-6.66563
G1 X4.07871 Y-6.42702
G1 X4.47745 Y-6.16269
G1 X4.85908 Y-5.87362
G1 X5.22207 Y-5.56094
G1 X5.56495 Y-5.22583
G1 X5.88634 Y-4.86960
G1 X6.18493 Y-4.49362
G1 X6.45953 Y-4.09934
G1 X6.70900 Y-3.68831
G1 X6.93233 Y-3.26211
G1 X7.12860 Y-2.82241
G1 X7.29698 Y-2.37093
G1 X7.43678 Y-1.90944
G1 X7.54740 Y-1.43974
G1 X7.62837 Y-0.96369
G1 X7.67932 Y-0.48314
G1 X7.70000 Y0.00000
G1 X7.69029 Y0.48383
G1 X7.65020 Y0.96644
G1 X7.57982 Y1.44593
G1 X7.47940 Y1.92038
G1 X7.34929 Y2.38793
G1 X7.18996 Y2.84671
G1 X7.00200 Y3.29489
G1 X6.78612 Y3.73070
G1 X6.54312 Y4.15239
G1 X6.27393 Y4.55827
G1 X5.97957 Y4.94673
G1 X5.66117 Y5.31619
G1 X5.31996 Y5.66518
G1 X4.95725 Y5.99228
G1 X4.57444 Y6.29617
G1 X4.17302 Y6.57563
G1 X3.75455 Y6.82950
G1 X3.32065 Y7.05675
G1 X2.87303 Y7.25644
G1 X2.41342 Y7.42775
G1 X1.94364 Y7.56996
G1 X1.46551 Y7.68247
G1 X0.98092 Y7.76479
G1 X0.49178 Y7.81655
G1 X-0.00000 Y7.83750
G1 X-0.49247 Y7.82752
G1 X-0.98368 Y7.78661
G1 X-1.47169 Y7.71488
G1 X-1.95458 Y7.61258
G1 X-2.43042 Y7.48006
G1 X-2.89732 Y7.31781
G1 X-3.35344 Y7.12642
G1 X-3.79694 Y6.90661
G1 X-4.22607 Y6.65921
G1 X-4.63910 Y6.38517
G1 X-5.03437 Y6.08551
G1 X-5.41032 Y5.76140
G1 X-5.76541 Y5.41408
G1 X-6.09823 Y5.04489
G1 X-6.40741 Y4.65526
G1 X-6.69172 Y4.24670
G1 X-6.94999 Y3.82079
G1 X-7.18116 Y3.37920
G1 X-7.38428 Y2.92365
G1 X-7.55852 Y2.45591
G1 X-7.70314 Y1.97783
G1 X-7.81753 Y1.49127
G1 X-7.90120 Y0.99815
G1 X-7.95377 Y0.50041
G1 X-7.97500 Y-0.00000
G1 X-7.96475 Y-0.50110
G1 X-7.92303 Y-1.00091
G1 X-7.84995 Y-1.49746
G1 X-7.74576 Y-1.98877
G1 X-7.61083 Y-2.47291
G1 X-7.44565 Y-2.94794
G1 X-7.25083 Y-3.41198
G1 X-7.02710 Y-3.86318
G1 X-6.77531 Y-4.29974
G1 X-6.49641 Y-4.71992
G1 X-6.19146 Y-5.12202
G1 X-5.86164 Y-5.50444
G1 X-5.50821 Y-5.86565
G1 X-5.13254 Y-6.20417
G1 X-4.73608 Y-6.51865
G1 X-4.32037 Y-6.80782
G1 X-3.88703 Y-7.07048
G1 X-3.43774 Y-7.30557
G1 X-2.97426 Y-7.51213
G1 X-2.49840 Y-7.68929
G1 X-2.01203 Y-7.83632
G1 X-1.51704 Y-7.95260
G1 X-1.01539 Y-8.03762
G1 X-0.50904 Y-8.09100
G1 X0.00000 Y-8.11250
G1 X0.50973 Y-8.10198
G1 X1.01814 Y-8.05944
G1 X1.52322 Y-7.98501
G1 X2.02297 Y-7.87894
G1 X2.51540 Y-7.74160
G1 X2.99856 Y-7.57349
G1 X3.47053 Y-7.37525
G1 X3.92942 Y-7.14760
G1 X4.37342 Y-6.89140
G1 X4.80074 Y-6.60765
G1 X5.20967 Y-6.29740
G1 X5.59857 Y-5.96187
G1 X5.96588 Y-5.60233
G1 X6.31012 Y-5.22018
G1 X6.62989 Y-4.81690
G1 X6.92391 Y-4.39405
G1 X7.19097 Y-3.95327
G1 X7.42999 Y-3.49629
G1 X7.63997 Y-3.02488
G1 X7.82006 Y-2.54089
G1 X7.96950 Y-2.04622
G1 X8.08766 Y-1.54280
G1 X8.17403 Y-1.03262
G1 X8.22823 Y-0.51768
G1 X8.25000 Y0.00000
G1 X8.23921 Y0.51837
G1 X8.19586 Y1.03538
G1 X8.12008 Y1.54899
G1 X8.01212 Y2.05716
G1 X7.87237 Y2.55789
G1 X7.70134 Y3.04918
G1 X7.49966 Y3.52907
G1 X7.26809 Y3.99566
G1 X7.00750 Y4.44709
G1 X6.71889 Y4.88156
G1 X6.40335 Y5.29731
G1 X6.06210 Y5.69269
G1 X5.69646 Y6.06611
G1 X5.30783 Y6.41606
G1 X4.89772 Y6.74113
G1 X4.46772 Y7.04001
G1 X4.01951 Y7.31146
G1 X3.55483 Y7.55440
G1 X3.07550 Y7.76782
G1 X2.58338 Y7.95083
G1 X2.08042 Y8.10268
G1 X1.56857 Y8.22273
G1 X1.04985 Y8.31045
G1 X0.52631 Y8.36546
G1 X-0.00000 Y8.38750
G1 X-0.52700 Y8.37644
G1 X-1.05261 Y8.33228
G1 X-1.57475 Y8.25514
G1 X-2.09136 Y8.14530

(Outer Circle)

G1 X-2.59961 Y8.00076
G1 X-3.09685 Y7.82174
G1 X-3.58187 Y7.61186
G1 X-4.05275 Y7.37193
G1 X-4.50764 Y7.10291
G1 X-4.94474 Y6.80586
G1 X-5.36233 Y6.48194
G1 X-5.75875 Y6.13245
G1 X-6.13245 Y5.75875
G1 X-6.48194 Y5.36233
G1 X-6.80586 Y4.94474
G1 X-7.10291 Y4.50764
G1 X-7.37193 Y4.05275
G1 X-7.61186 Y3.58187
G1 X-7.82174 Y3.09685
G1 X-8.00076 Y2.59961
G1 X-8.14821 Y2.09210
G1 X-8.26349 Y1.57635
G1 X-8.34616 Y1.05437
G1 X-8.39590 Y0.52823
G1 X-8.41250 Y-0.00000
G1 X-8.39590 Y-0.52823
G1 X-8.34616 Y-1.05437
G1 X-8.26349 Y-1.57635
G1 X-8.14821 Y-2.09210
G1 X-8.00076 Y-2.59961
G1 X-7.82174 Y-3.09685
G1 X-7.61186 Y-3.58187
G1 X-7.37193 Y-4.05275
G1 X-7.10291 Y-4.50764
G1 X-6.80586 Y-4.94474
G1 X-6.48194 Y-5.36233
G1 X-6.13245 Y-5.75875
G1 X-5.75875 Y-6.13245
G1 X-5.36233 Y-6.48194
G1 X-4.94474 Y-6.80586
G1 X-4.50764 Y-7.10291
G1 X-4.05275 Y-7.37193
G1 X-3.58187 Y-7.61186
G1 X-3.09685 Y-7.82174
G1 X-2.59961 Y-8.00076
G1 X-2.09210 Y-8.14821
G1 X-1.57635 Y-8.26349
G1 X-1.05437 Y-8.34616
G1 X-0.52823 Y-8.39590
G1 X0.00000 Y-8.41250
G1 X0.52823 Y-8.39590
G1 X1.05437 Y-8.34616
G1 X1.57635 Y-8.26349
G1 X2.09210 Y-8.14821
G1 X2.59961 Y-8.00076
G1 X3.09685 Y-7.82174
G1 X3.58187 Y-7.61186
G1 X4.05275 Y-7.37193
G1 X4.50764 Y-7.10291
G1 X4.94474 Y-6.80586
G1 X5.36233 Y-6.48194
G1 X5.75875 Y-6.13245
G1 X6.13245 Y-5.75875
G1 X6.48194 Y-5.36233
G1 X6.80586 Y-4.94474
G1 X7.10291 Y-4.50764
G1 X7.37193 Y-4.05275
G1 X7.61186 Y-3.58187
G1 X7.82174 Y-3.09685
G1 X8.00076 Y-2.59961
G1 X8.14821 Y-2.09210
G1 X8.26349 Y-1.57635
G1 X8.34616 Y-1.05437
G1 X8.39590 Y-0.52823
G1 X8.41250 Y0.00000
G1 X8.39590 Y0.52823
G1 X8.34616 Y1.05437
G1 X8.26349 Y1.57635
G1 X8.14821 Y2.09210
G1 X8.00076 Y2.59961
G1 X7.82174 Y3.09685
G1 X7.61186 Y3.58187
G1 X7.37193 Y4.05275
G1 X7.10291 Y4.50764
G1 X6.80586 Y4.94474
G1 X6.48194 Y5.36233
G1 X6.13245 Y5.75875
G1 X5.75875 Y6.13245
G1 X5.36233 Y6.48194
G1 X4.94474 Y6.80586
G1 X4.50764 Y7.10291
G1 X4.05275 Y7.37193
G1 X3.58187 Y7.61186
G1 X3.09685 Y7.82174
G1 X2.59961 Y8.00076
G1 X2.09210 Y8.14821
G1 X1.57635 Y8.26349
G1 X1.05437 Y8.34616
G1 X0.52823 Y8.39590
G1 X-0.00000 Y8.41250
G1 X-0.52823 Y8.39590
G1 X-1.05437 Y8.34616
G1 X-1.57635 Y8.26349
G1 X-2.09210 Y8.14821
G1 X-2.59961 Y8.00076

(Return)

G1 X0.00000 Y0.00000 F500.00000
(G4 P0.1)
G1 Z0.00000
