(ShapeOko2 "Hello World" test file)
(Set up sheet of paper landscape, long edge on X-axis)
(Starting location around the lower[-y] left[-x] corner)

(originally Generated by PartKam Version 0.05)

G20 G90 (remove G40)

(write the words)
G0 Z0.125
(remove x)
G17

G0 X0.435 Y0.4042
G1 Z-0.01 F10
G3 X0.4557 Y0.4046 I0 J0.4533 F40
G3 X0.4728 Y0.4059 I-0.0142 J0.3117
G3 X0.4898 Y0.4082 I-0.0257 J0.2542
G3 X0.5034 Y0.4111 I-0.028 J0.1653
G3 X0.5168 Y0.415 I-0.0472 J0.1844
G3 X0.5278 Y0.4192 I-0.0435 J0.1296
G3 X0.5383 Y0.4245 I-0.0462 J0.1062
G3 X0.5468 Y0.4299 I-0.0415 J0.0739
G3 X0.5545 Y0.4363 I-0.0474 J0.0649
G3 X0.5606 Y0.4429 I-0.0441 J0.0468
G3 X0.5656 Y0.4503 I-0.0464 J0.0371
G3 X0.5694 Y0.4582 I-0.0481 J0.0278
G3 X0.5721 Y0.4664 I-0.0805 J0.031
G3 X0.5741 Y0.4754 I-0.093 J0.0254
G3 X0.5753 Y0.4846 I-0.1022 J0.0176
G3 X0.5757 Y0.4946 I-0.1224 J0.01
G3 X0.5731 Y0.5153 I-0.083 J0
G3 X0.5656 Y0.5337 I-0.0731 J-0.0188
G3 X0.5537 Y0.5498 I-0.072 J-0.0408
G3 X0.5355 Y0.5656 I-0.0876 J-0.083
G3 X0.5146 Y0.5784 I-0.1178 J-0.1676
G3 X0.4808 Y0.5949 I-0.2293 J-0.4268
G3 X0.4459 Y0.6092 I-0.282 J-0.6397
G3 X0.3973 Y0.6265 I-0.4624 J-1.2235
G2 X0.376 Y0.6343 I0.3353 J0.9488
G2 X0.3546 Y0.6427 I0.3684 J0.9724
G2 X0.3333 Y0.6515 I0.3967 J0.9808
G2 X0.3119 Y0.661 I0.4333 J1.0077
G2 X0.2909 Y0.6715 I0.1396 J0.3066
G2 X0.2714 Y0.683 I0.1507 J0.2779
G2 X0.2527 Y0.6959 I0.1666 J0.2606
G2 X0.2353 Y0.71 I0.1811 J0.2422
G2 X0.2191 Y0.7255 I0.1487 J0.1708
G2 X0.2045 Y0.7427 I0.1668 J0.1572
G2 X0.1916 Y0.7611 I0.1861 J0.1436
G2 X0.18 Y0.7816 I0.2168 J0.1363
G2 X0.1709 Y0.8032 I0.1508 J0.0765
G2 X0.164 Y0.8282 I0.1965 J0.0675
G2 X0.1601 Y0.854 I0.2316 J0.0483
G2 X0.1587 Y0.884 I0.3133 J0.03
G2 X0.1601 Y0.914 I0.3058 J0
G2 X0.1643 Y0.9413 I0.2576 J-0.0254
G2 X0.1715 Y0.968 I0.2377 J-0.0494
G2 X0.1813 Y0.9926 I0.2132 J-0.0704
G2 X0.1938 Y1.016 I0.2171 J-0.1015
G2 X0.2086 Y1.0374 I0.1951 J-0.1191
G2 X0.2257 Y1.0569 I0.1807 J-0.1407
G2 X0.2453 Y1.0749 I0.1727 J-0.1691
G2 X0.2668 Y1.0906 I0.1588 J-0.1942
G2 X0.2912 Y1.1049 I0.1534 J-0.2346
G2 X0.3168 Y1.1167 I0.1391 J-0.2681
G2 X0.3458 Y1.127 I0.1352 J-0.3335
G2 X0.3756 Y1.1348 I0.1068 J-0.3459
G2 X0.4086 Y1.1407 I0.0911 J-0.4184
G2 X0.442 Y1.144 I0.0638 J-0.4657
G2 X0.4789 Y1.1452 I0.037 J-0.5706
G2 X0.5228 Y1.144 I0 J-0.7643
G2 X0.5609 Y1.1405 I-0.0333 J-0.5787
G2 X0.5986 Y1.1344 I-0.062 J-0.5001
G2 X0.6309 Y1.1264 I-0.0758 J-0.3755
G2 X0.6627 Y1.1163 I-0.2335 J-0.7931
G2 X0.6893 Y1.1066 I-0.191 J-0.5638
G2 X0.7154 Y1.0955 I-0.1827 J-0.4653
G2 X0.7364 Y1.0849 I-0.1447 J-0.3148
G1 X0.6799 Y0.9304
G3 X0.6615 Y0.9394 I-0.2077 J-0.4011
G3 X0.6414 Y0.9482 I-0.2158 J-0.4675
G3 X0.621 Y0.9561 I-0.2093 J-0.5093
G3 X0.5989 Y0.9637 I-0.2164 J-0.5924
G3 X0.5764 Y0.9698 I-0.0747 J-0.2309
G3 X0.5498 Y0.9745 I-0.0698 J-0.3171
G3 X0.5228 Y0.9772 I-0.0502 J-0.3738
G3 X0.4915 Y0.9782 I-0.0314 J-0.5063
G3 X0.4565 Y0.9767 I0 J-0.4369
G3 X0.4311 Y0.9733 I0.0187 J-0.2329
G3 X0.4065 Y0.9666 I0.0312 J-0.1619
G3 X0.3904 Y0.9587 I0.0277 J-0.0771
G3 X0.3767 Y0.9474 I0.0374 J-0.0591
G3 X0.3673 Y0.9341 I0.0432 J-0.0405
G3 X0.3618 Y0.9186 I0.0563 J-0.029
G3 X0.3596 Y0.899 I0.0892 J-0.0196
G3 X0.3604 Y0.8872 I0.093 J0
G3 X0.3625 Y0.8771 I0.0704 J0.009
G3 X0.366 Y0.8674 I0.0617 J0.0173
G3 X0.3709 Y0.8588 I0.0525 J0.0244
G3 X0.377 Y0.851 I0.0702 J0.0485
G3 X0.3846 Y0.8433 I0.0772 J0.0678
G3 X0.3929 Y0.8363 I0.0778 J0.0845
G3 X0.403 Y0.8293 I0.0886 J0.1165
G3 X0.4135 Y0.823 I0.1229 J0.1933
G3 X0.4253 Y0.8168 I0.1326 J0.2355
G3 X0.4373 Y0.8111 I0.1314 J0.2629
G3 X0.4507 Y0.8055 I0.1413 J0.3181
G3 X0.4642 Y0.8002 I0.4349 J1.1
G3 X0.4791 Y0.7946 I0.5053 J1.3254
G3 X0.4941 Y0.7892 I0.5351 J1.4522
G3 X0.5104 Y0.7835 I0.615 J1.7234
G2 X0.5441 Y0.7706 I-0.62 J-1.6745
G2 X0.5738 Y0.7585 I-0.5126 J-1.3027
G2 X0.6031 Y0.7457 I-0.4768 J-1.135
G2 X0.6284 Y0.7339 I-0.3858 J-0.8553
G2 X0.653 Y0.7208 I-0.1756 J-0.3603
G2 X0.6744 Y0.7073 I-0.164 J-0.2844
G2 X0.6946 Y0.6922 I-0.1689 J-0.2468
G2 X0.7119 Y0.6767 I-0.1605 J-0.1966
G2 X0.7276 Y0.6596 I-0.1493 J-0.1521
G2 X0.741 Y0.6412 I-0.1581 J-0.1293
G2 X0.7522 Y0.6215 I-0.172 J-0.1113
G2 X0.7615 Y0.6001 I-0.1936 J-0.0968
G2 X0.7685 Y0.5778 I-0.2008 J-0.0746
G2 X0.7738 Y0.5514 I-0.2755 J-0.0693
G2 X0.7768 Y0.5247 I-0.3264 J-0.0499
G2 X0.7779 Y0.4934 I-0.4455 J-0.0313
G2 X0.772 Y0.4337 I-0.3082 J0
G2 X0.7565 Y0.3852 I-0.2183 J0.0431
G2 X0.7301 Y0.3418 I-0.1887 J0.0852
G2 X0.6925 Y0.3043 I-0.1784 J0.1413
G2 X0.647 Y0.2762 I-0.146 J0.1856
G2 X0.5854 Y0.2539 I-0.1514 J0.3216
G2 X0.5204 Y0.2419 I-0.1159 J0.4443
G2 X0.435 Y0.2371 I-0.0854 J0.7648
G2 X0.4061 Y0.2376 I0 J0.919
G2 X0.38 Y0.2388 I0.0236 J0.75
G2 X0.354 Y0.2411 I0.0448 J0.6746
G2 X0.3307 Y0.244 I0.0572 J0.5433
G2 X0.3075 Y0.2478 I0.1319 J0.886
G2 X0.2869 Y0.2517 I0.1238 J0.7045
G2 X0.2664 Y0.2563 I0.1284 J0.6229
G2 X0.2485 Y0.261 I0.1166 J0.4841
G2 X0.2307 Y0.2663 I0.1781 J0.6347
G2 X0.2152 Y0.2714 I0.1505 J0.4834
G2 X0.1999 Y0.277 I0.1443 J0.4161
G2 X0.1869 Y0.2823 I0.1191 J0.3062
G2 X0.1741 Y0.2881 I0.2781 J0.6336
G2 X0.1632 Y0.2933 I0.2146 J0.4632
G2 X0.1524 Y0.2988 I0.1915 J0.3889
G2 X0.1436 Y0.3037 I0.1422 J0.2695
G1 X0.1988 Y0.4594
G3 X0.2186 Y0.4494 I0.1622 J0.2959
G3 X0.2423 Y0.4392 I0.1933 J0.4152
G3 X0.2666 Y0.4302 I0.1967 J0.4934
G3 X0.2949 Y0.4211 I0.2292 J0.6675
G3 X0.3238 Y0.414 I0.0929 J0.313
G3 X0.3585 Y0.4084 I0.0897 J0.4486
G3 X0.3936 Y0.4053 I0.065 J0.537
G3 X0.435 Y0.4042 I0.0414 J0.7464
G0 Z0.125
G0 X1.4536 Y1.1251
G1 Z-0.01 F10
G1 X1.6496 Y1.1251 F40
G1 X1.6496 Y0.2547
G1 X1.4536 Y0.2547
G1 X1.4536 Y0.624
G1 X1.1246 Y0.624
G1 X1.1246 Y0.2547
G1 X0.9286 Y0.2547
G1 X0.9286 Y1.1251
G1 X1.1246 Y1.1251
G1 X1.1246 Y0.7923
G1 X1.4536 Y0.7923
G1 X1.4536 Y1.1251
G0 Z0.125
G0 X2.4338 Y0.2547
G1 Z-0.01 F10
G1 X2.403 Y0.3477 F40
G1 X2.3698 Y0.4431
G1 X2.0306 Y0.4431
G1 X1.9973 Y0.3477
G1 X1.9666 Y0.2547
G1 X1.7631 Y0.2547
G2 X1.7877 Y0.325 I17.8599 J-6.2193
G2 X1.8108 Y0.39 I15.3154 J-5.401
G2 X1.8342 Y0.455 I14.1288 J-5.0502
G2 X1.856 Y0.5147 I11.9637 J-4.3385
G2 X1.8782 Y0.5743 I9.7422 J-3.588
G2 X1.8995 Y0.6306 I8.7097 J-3.2684
G2 X1.9212 Y0.6867 I8.2125 J-3.1426
G2 X1.9421 Y0.7395 I7.2956 J-2.8491
G2 X1.9633 Y0.7922 I8.4224 J-3.3598
G2 X1.9838 Y0.8424 I7.6529 J-3.1085
G2 X2.0047 Y0.8924 I7.277 J-3.0116
G2 X2.025 Y0.9399 I6.5821 J-2.7772
G2 X2.0457 Y0.9872 I4.2002 J-1.8081
G2 X2.0666 Y1.0336 I4.0692 J-1.8064
G2 X2.0881 Y1.0798 I3.9952 J-1.8286
G2 X2.1098 Y1.1251 I3.8717 J-1.8266
G1 X2.2969 Y1.1251
G2 X2.3181 Y1.0798 I-6.0675 J-2.8652
G2 X2.3393 Y1.0336 I-6.3027 J-2.919
G2 X2.3602 Y0.9872 I-6.4339 J-2.9227
G2 X2.381 Y0.9399 I-6.6806 J-2.977
G2 X2.4016 Y0.8924 I-5.4185 J-2.3686
G2 X2.4227 Y0.8424 I-5.9798 J-2.5519
G2 X2.4433 Y0.7922 I-6.2861 J-2.6208
G2 X2.4646 Y0.7395 I-6.9077 J-2.8155
G2 X2.4854 Y0.6867 I-7.3628 J-2.9356
G2 X2.5071 Y0.6306 I-8.2907 J-3.237
G2 X2.5284 Y0.5743 I-8.7947 J-3.3654
G2 X2.5506 Y0.5147 I-9.8397 J-3.6933
G2 X2.5724 Y0.455 I-11.8601 J-4.3698
G2 X2.5958 Y0.39 I-14.0105 J-5.0822
G2 X2.6189 Y0.325 I-15.1905 J-5.4307
G2 X2.6436 Y0.2547 I-17.7191 J-6.2494
G1 X2.4338 Y0.2547
G0 Z0.125
G0 X2.1989 Y0.9279
G1 Z-0.01 F10
G2 X2.1957 Y0.9185 I-0.5641 J0.1881 F40
G2 X2.1911 Y0.9056 I-1.0677 J0.3759
G2 X2.1863 Y0.8928 I-1.4028 J0.513
G2 X2.1801 Y0.8764 I-2.2751 J0.8558
G3 X2.1738 Y0.8601 I30.9994 J-11.916
G3 X2.1666 Y0.8413 I41.2401 J-15.8275
G3 X2.1594 Y0.8224 I47.1201 J-18.0595
G3 X2.1512 Y0.8011 I60.4881 J-23.1553
G3 X2.143 Y0.7797 I19.8859 J-7.6046
G3 X2.1341 Y0.7562 I24.1414 J-9.2022
G3 X2.1251 Y0.7326 I26.4832 J-10.0653
G3 X2.1154 Y0.7069 I31.5951 J-11.976
G3 X2.1057 Y0.6811 I4.794 J-1.8127
G3 X2.0958 Y0.6541 I5.244 J-1.9507
G3 X2.086 Y0.6271 I5.4846 J-2.0082
G3 X2.0758 Y0.5988 I5.9771 J-2.1552
G1 X2.3233 Y0.5988
G3 X2.3132 Y0.6271 I-12.9639 J-4.6057
G3 X2.3035 Y0.6541 I-11.8652 J-4.2445
G3 X2.2937 Y0.6811 I-11.3354 J-4.0841
G3 X2.2843 Y0.7069 I-10.3324 J-3.7506
G3 X2.2748 Y0.7326 I-4.3139 J-1.5783
G3 X2.266 Y0.7562 I-3.6331 J-1.3538
G3 X2.2569 Y0.7797 I-3.3175 J-1.2608
G3 X2.2485 Y0.8011 I-2.7503 J-1.0677
G2 X2.2401 Y0.8224 I9.4214 J3.7426
G2 X2.2327 Y0.8413 I7.3257 J2.8909
G2 X2.2253 Y0.8601 I6.4077 J2.5096
G2 X2.219 Y0.8764 I4.802 J1.8645
G3 X2.2127 Y0.8927 I-7.2811 J-2.7989
G3 X2.2077 Y0.9056 I-4.551 J-1.7612
G3 X2.2027 Y0.9185 I-3.4837 J-1.3595
G3 X2.1989 Y0.9279 I-1.8801 J-0.7417
G0 Z0.125
G0 X3.0175 Y1.1352
G1 Z-0.01 F10
G2 X3.1143 Y1.1304 I0 J-0.9783 F40
G2 X3.1895 Y1.118 I-0.06 J-0.603
G2 X3.2619 Y1.0953 I-0.1063 J-0.4642
G2 X3.3164 Y1.0667 I-0.1178 J-0.2911
G2 X3.362 Y1.0268 I-0.1208 J-0.184
G2 X3.3946 Y0.9764 I-0.1634 J-0.1415
G2 X3.4133 Y0.9188 I-0.2268 J-0.1055
G2 X3.4207 Y0.8425 I-0.3919 J-0.0763
G2 X3.4132 Y0.7656 I-0.4013 J0
G2 X3.3943 Y0.7073 I-0.2484 J0.0485
G2 X3.3613 Y0.6563 I-0.1992 J0.0927
G2 X3.3152 Y0.6158 I-0.1701 J0.147
G2 X3.26 Y0.5867 I-0.1755 J0.2656
G2 X3.187 Y0.5635 I-0.1806 J0.4426
G2 X3.1111 Y0.551 I-0.1365 J0.5905
G2 X3.0137 Y0.5461 I-0.0974 J0.969
G1 X2.9522 Y0.5461
G1 X2.9522 Y0.2547
G1 X2.7562 Y0.2547
G1 X2.7562 Y1.1126
G2 X2.7883 Y1.1183 I0.19 J-0.9718
G2 X2.8222 Y1.1232 I0.1732 J-1.0725
G2 X2.8561 Y1.1271 I0.1462 J-1.1296
G2 X2.8919 Y1.1301 I0.1235 J-1.2476
G2 X2.9277 Y1.1324 I0.1789 J-2.5504
G2 X2.9591 Y1.1339 I0.1097 J-1.9581
G2 X2.9905 Y1.1349 I0.068 J-1.701
G2 X3.0175 Y1.1352 I0.027 J-1.257
G0 Z0.125
G0 X3.03 Y0.9681
G1 Z-0.01 F10
G1 X2.988 Y0.9669 F40
G3 X2.9775 Y0.9662 I0.1375 J-2.2842
G3 X2.9686 Y0.9656 I0.1084 J-1.6742
G3 X2.9597 Y0.965 I0.0994 J-1.4177
G3 X2.9522 Y0.9644 I0.0758 J-0.9911
G1 X2.9522 Y0.7131
G1 X3.0137 Y0.7131
G3 X3.0644 Y0.7151 I0 J0.6562
G3 X3.1029 Y0.72 I-0.0297 J0.3827
G3 X3.1403 Y0.7294 I-0.051 J0.2826
G3 X3.1669 Y0.7408 I-0.0497 J0.1535
G3 X3.1895 Y0.7577 I-0.0439 J0.0818
G3 X3.2056 Y0.7803 I-0.0644 J0.0629
G3 X3.2147 Y0.807 I-0.0959 J0.048
G3 X3.2184 Y0.8438 I-0.1813 J0.0368
G3 X3.2175 Y0.8619 I-0.1838 J0
G3 X3.2151 Y0.877 I-0.1312 J-0.013
G3 X3.2109 Y0.8918 I-0.1104 J-0.0241
G3 X3.2052 Y0.9041 I-0.0828 J-0.0303
G3 X3.1979 Y0.9154 I-0.0877 J-0.0485
G3 X3.1892 Y0.9256 I-0.078 J-0.058
G3 X3.1793 Y0.9344 I-0.0709 J-0.0697
G3 X3.1676 Y0.9424 I-0.0682 J-0.088
G3 X3.155 Y0.9489 I-0.0659 J-0.1118
G3 X3.1404 Y0.9546 I-0.0654 J-0.1451
G3 X3.1253 Y0.959 I-0.0571 J-0.1695
G3 X3.1079 Y0.9625 I-0.0538 J-0.2228
G3 X3.0903 Y0.9649 I-0.0622 J-0.3868
G3 X3.0709 Y0.9667 I-0.0535 J-0.4675
G3 X3.0514 Y0.9677 I-0.0373 J-0.514
G3 X3.03 Y0.9681 I-0.0213 J-0.6163
G0 Z0.125
G0 X3.5657 Y0.2547
G1 Z-0.01 F10
G1 X3.5657 Y1.1251 F40
G1 X4.1536 Y1.1251
G1 X4.1536 Y0.9606
G1 X3.7617 Y0.9606
G1 X3.7617 Y0.7898
G1 X4.1096 Y0.7898
G1 X4.1096 Y0.629
G1 X3.7617 Y0.629
G1 X3.7617 Y0.4193
G1 X4.1825 Y0.4193
G1 X4.1825 Y0.2547
G1 X3.5657 Y0.2547
G0 Z0.125
G0 X4.4908 Y0.6905
G1 Z-0.01 F10
G3 X4.4918 Y0.6586 I0.4971 J0 F40
G3 X4.4947 Y0.6296 I0.4109 J0.0265
G3 X4.4997 Y0.601 I0.3733 J0.0507
G3 X4.5065 Y0.575 I0.3139 J0.0676
G3 X4.5154 Y0.5497 I0.3036 J0.0925
G3 X4.5256 Y0.5271 I0.2511 J0.1004
G3 X4.5379 Y0.5056 I0.2254 J0.1151
G3 X4.5517 Y0.4864 I0.1934 J0.124
G3 X4.5674 Y0.4689 I0.1636 J0.1303
G3 X4.5845 Y0.4536 I0.1398 J0.1398
G3 X4.6033 Y0.4405 I0.1224 J0.1548
G3 X4.6239 Y0.4293 I0.109 J0.1765
G3 X4.6457 Y0.4206 I0.0819 J0.174
G3 X4.6698 Y0.4142 I0.0674 J0.205
G3 X4.6944 Y0.4105 I0.0471 J0.2296
G3 X4.7219 Y0.4092 I0.0275 J0.2849
G3 X4.7487 Y0.4105 I0 J0.2758
G3 X4.7732 Y0.4142 I-0.0227 J0.2323
G3 X4.7971 Y0.4206 I-0.0443 J0.2143
G3 X4.8192 Y0.4293 I-0.0629 J0.192
G3 X4.8402 Y0.4405 I-0.0881 J0.1899
G3 X4.8591 Y0.4536 I-0.1024 J0.1678
G3 X4.8763 Y0.4689 I-0.1208 J0.154
G3 X4.8921 Y0.4864 I-0.1445 J0.1452
G3 X4.9058 Y0.5056 I-0.1798 J0.1433
G3 X4.9181 Y0.5271 I-0.2133 J0.1367
G3 X4.9284 Y0.5497 I-0.2412 J0.1232
G3 X4.9373 Y0.575 I-0.295 J0.1181
G3 X4.944 Y0.601 I-0.3069 J0.0937
G3 X4.9491 Y0.6296 I-0.3679 J0.0794
G3 X4.952 Y0.6586 I-0.4076 J0.0554
G3 X4.953 Y0.6905 I-0.4955 J0.032
G3 X4.952 Y0.7225 I-0.4983 J0
G3 X4.9491 Y0.7516 I-0.4161 J-0.0268
G3 X4.944 Y0.7804 I-0.3801 J-0.0514
G3 X4.9373 Y0.8067 I-0.3232 J-0.0691
G3 X4.9284 Y0.8324 I-0.3076 J-0.0928
G3 X4.9181 Y0.8551 I-0.252 J-0.0999
G3 X4.9058 Y0.8767 I-0.2249 J-0.1141
G3 X4.8921 Y0.8959 I-0.1909 J-0.1218
G3 X4.8763 Y0.9135 I-0.1602 J-0.1276
G3 X4.8591 Y0.9287 I-0.1379 J-0.1385
G3 X4.8402 Y0.9418 I-0.1212 J-0.1544
G3 X4.8192 Y0.9531 I-0.1088 J-0.1784
G3 X4.7971 Y0.9618 I-0.085 J-0.1835
G3 X4.7732 Y0.9681 I-0.0682 J-0.2081
G3 X4.7487 Y0.9718 I-0.0472 J-0.2288
G3 X4.7219 Y0.9731 I-0.0269 J-0.2747
G3 X4.6944 Y0.9718 I0 J-0.2778
G3 X4.6698 Y0.968 I0.0226 J-0.2269
G3 X4.6458 Y0.9614 I0.0436 J-0.206
G3 X4.6239 Y0.9524 I0.0608 J-0.1793
G3 X4.6033 Y0.941 I0.0938 J-0.1933
G3 X4.5845 Y0.9276 I0.1085 J-0.1725
G3 X4.5674 Y0.9123 I0.1271 J-0.159
G3 X4.5517 Y0.8947 I0.1514 J-0.1507
G3 X4.538 Y0.8755 I0.1766 J-0.1407
G3 X4.5256 Y0.8538 I0.2121 J-0.1354
G3 X4.5154 Y0.8311 I0.2413 J-0.1223
G3 X4.5065 Y0.8055 I0.2984 J-0.1182
G3 X4.4997 Y0.7792 I0.3216 J-0.0968
G3 X4.4947 Y0.7507 I0.3729 J-0.0801
G3 X4.4918 Y0.7219 I0.4066 J-0.0555
G3 X4.4908 Y0.6905 I0.4804 J-0.0313
G0 Z0.125
G0 X5.1552 Y0.6905
G1 Z-0.01 F10
G2 X5.153 Y0.6348 I-0.7056 J0 F40
G2 X5.1469 Y0.5855 I-0.5592 J0.0443
G2 X5.1362 Y0.537 I-0.4973 J0.0842
G2 X5.1219 Y0.494 I-0.4061 J0.1107
G2 X5.1034 Y0.4526 I-0.4475 J0.1756
G2 X5.0825 Y0.4161 I-0.3674 J0.1859
G2 X5.058 Y0.3821 I-0.3264 J0.2094
G2 X5.0309 Y0.3521 I-0.2803 J0.2261
G2 X5.0006 Y0.3252 I-0.2579 J0.2609
G2 X4.9676 Y0.302 I-0.2269 J0.2867
G2 X4.9322 Y0.2824 I-0.1983 J0.3171
G2 X4.8933 Y0.266 I-0.1783 J0.3683
G2 X4.8529 Y0.2534 I-0.1576 J0.4351
G2 X4.8106 Y0.2443 I-0.1231 J0.4701
G2 X4.7676 Y0.239 I-0.0841 J0.4988
G2 X4.7219 Y0.2371 I-0.0457 J0.5609
G2 X4.6774 Y0.239 I0 J0.5346
G2 X4.6352 Y0.2443 I0.0407 J0.4884
G2 X4.5936 Y0.2534 I0.0806 J0.4691
G2 X4.5536 Y0.266 I0.1189 J0.4479
G2 X4.5149 Y0.2824 I0.1418 J0.3881
G2 X4.4795 Y0.302 I0.1683 J0.3468
G2 X4.4463 Y0.3252 I0.2011 J0.3229
G2 X4.4154 Y0.3521 I0.2387 J0.3054
G2 X4.3877 Y0.3821 I0.2524 J0.2608
G2 X4.3627 Y0.4161 I0.2987 J0.246
G2 X4.3414 Y0.4526 I0.3422 J0.2241
G2 X4.3225 Y0.494 I0.4215 J0.2176
G2 X4.3079 Y0.537 I0.3858 J0.1543
G2 X4.297 Y0.5855 I0.4777 J0.1328
G2 X4.2908 Y0.6348 I0.5427 J0.0937
G2 X4.2885 Y0.6905 I0.6897 J0.0557
G2 X4.2909 Y0.7462 I0.6678 J0
G2 X4.2973 Y0.7956 I0.5306 J-0.0444
G2 X4.3086 Y0.844 I0.473 J-0.0846
G2 X4.3237 Y0.8871 I0.3899 J-0.1124
G2 X4.3432 Y0.9285 I0.4519 J-0.1874
G2 X4.365 Y0.9652 I0.376 J-0.199
G2 X4.3904 Y0.9993 I0.3361 J-0.2236
G2 X4.4185 Y1.0297 I0.2923 J-0.2425
G2 X4.4497 Y1.0569 I0.2779 J-0.287
G2 X4.4829 Y1.0802 I0.2379 J-0.303
G2 X4.5184 Y1.1 I0.2055 J-0.3276
G2 X4.5567 Y1.1163 I0.1789 J-0.3656
G2 X4.5964 Y1.129 I0.1604 J-0.4356
G2 X4.6372 Y1.138 I0.1212 J-0.4502
G2 X4.6787 Y1.1434 I0.0819 J-0.4678
G2 X4.7219 Y1.1452 I0.0432 J-0.5057
G2 X4.7663 Y1.1434 I0 J-0.535
G2 X4.8085 Y1.138 I-0.0407 J-0.4886
G2 X4.8501 Y1.1289 I-0.0806 J-0.4692
G2 X4.8902 Y1.1163 I-0.1189 J-0.4478
G2 X4.9288 Y1.0999 I-0.1394 J-0.3816
G2 X4.9643 Y1.0802 I-0.1667 J-0.3421
G2 X4.9975 Y1.0568 I-0.2001 J-0.3191
G2 X5.0284 Y1.0297 I-0.2393 J-0.3033
G2 X5.0561 Y0.9993 I-0.2595 J-0.2651
G2 X5.0811 Y0.9652 I-0.3049 J-0.2492
G2 X5.1024 Y0.9285 I-0.3477 J-0.2267
G2 X5.1213 Y0.8871 I-0.4252 J-0.219
G2 X5.1358 Y0.844 I-0.3859 J-0.1543
G2 X5.1467 Y0.7956 I-0.4781 J-0.1328
G2 X5.1529 Y0.7462 I-0.5432 J-0.0937
G2 X5.1552 Y0.6905 I-0.6906 J-0.0557
G0 Z0.125
G0 X5.831 Y0.2547
G1 Z-0.01 F10
G3 X5.8176 Y0.2759 I-1.044 J-0.6457 F40
G3 X5.8023 Y0.2991 I-1.2661 J-0.8193
G3 X5.7865 Y0.3221 I-1.3802 J-0.9298
G3 X5.7688 Y0.347 I-1.648 J-1.1507
G3 X5.7507 Y0.3716 I-1.2024 J-0.8671
G3 X5.7315 Y0.3966 I-1.2587 J-0.9478
G3 X5.7118 Y0.4213 I-1.2783 J-1.0032
G3 X5.691 Y0.4462 I-1.3393 J-1.0938
G3 X5.6697 Y0.4708 I-1.3401 J-1.1372
G3 X5.6481 Y0.4949 I-1.3041 J-1.1488
G3 X5.6261 Y0.5186 I-1.2762 J-1.1671
G3 X5.6037 Y0.5417 I-1.2437 J-1.1807
G3 X5.5807 Y0.5643 I-0.7609 J-0.7501
G3 X5.5585 Y0.5849 I-0.6558 J-0.6866
G3 X5.5355 Y0.6048 I-0.5973 J-0.6668
G3 X5.5132 Y0.6227 I-0.5113 J-0.6113
G1 X5.5132 Y0.2547
G1 X5.3173 Y0.2547
G1 X5.3173 Y1.1251
G1 X5.5132 Y1.1251
G1 X5.5132 Y0.796
G3 X5.5514 Y0.8364 I-4.1871 J3.9914
G3 X5.59 Y0.8782 I-4.4359 J4.1481
G3 X5.6283 Y0.9203 I-4.5842 J4.207
G3 X5.6671 Y0.9637 I-4.8507 J4.3705
G2 X5.7058 Y1.0073 I26.9704 J-23.868
G2 X5.7417 Y1.0477 I23.1463 J-20.5506
G2 X5.7777 Y1.088 I21.3614 J-19.0327
G2 X5.8109 Y1.1251 I18.1034 J-16.1914
G1 X6.0433 Y1.1251
G2 X5.9984 Y1.0726 I-5.3969 J4.5615
G2 X5.9539 Y1.0215 I-5.1497 J4.4395
G2 X5.9089 Y0.9709 I-5.0078 J4.405
G2 X5.8643 Y0.9217 I-4.7755 J4.2874
G2 X5.8191 Y0.8729 I-4.3297 J3.9689
G2 X5.7721 Y0.8234 I-4.526 J4.244
G2 X5.7246 Y0.7743 I-4.6029 J4.4123
G2 X5.6753 Y0.7244 I-4.8095 J4.7102
G2 X5.7262 Y0.6798 I-0.8185 J-0.9847
G2 X5.7778 Y0.6296 I-0.9824 J-1.0622
G2 X5.8269 Y0.577 I-1.1027 J-1.0792
G2 X5.8769 Y0.5185 I-1.3152 J-1.1722
G2 X5.9244 Y0.458 I-1.6952 J-1.3829
G2 X5.9722 Y0.3929 I-1.9177 J-1.4551
G2 X6.0177 Y0.3262 I-2.064 J-1.4598
G2 X6.0634 Y0.2547 I-2.3302 J-1.5388
G1 X5.831 Y0.2547
G0 Z0.125
G0 X6.3404 Y0.6905
G1 Z-0.01 F10
G3 X6.3415 Y0.6586 I0.4971 J0 F40
G3 X6.3444 Y0.6296 I0.4109 J0.0265
G3 X6.3494 Y0.601 I0.3733 J0.0507
G3 X6.3561 Y0.575 I0.3139 J0.0676
G3 X6.365 Y0.5497 I0.3036 J0.0925
G3 X6.3753 Y0.5271 I0.2511 J0.1004
G3 X6.3876 Y0.5056 I0.2254 J0.1151
G3 X6.4013 Y0.4864 I0.1934 J0.124
G3 X6.417 Y0.4689 I0.1636 J0.1303
G3 X6.4342 Y0.4536 I0.1398 J0.1398
G3 X6.4529 Y0.4405 I0.1224 J0.1548
G3 X6.4736 Y0.4293 I0.109 J0.1765
G3 X6.4954 Y0.4206 I0.0819 J0.174
G3 X6.5194 Y0.4142 I0.0674 J0.205
G3 X6.5441 Y0.4105 I0.0471 J0.2296
G3 X6.5715 Y0.4092 I0.0275 J0.2849
G3 X6.5984 Y0.4105 I0 J0.2758
G3 X6.6229 Y0.4142 I-0.0227 J0.2323
G3 X6.6468 Y0.4206 I-0.0443 J0.2143
G3 X6.6689 Y0.4293 I-0.0629 J0.192
G3 X6.6898 Y0.4405 I-0.0881 J0.1899
G3 X6.7088 Y0.4536 I-0.1024 J0.1678
G3 X6.726 Y0.4689 I-0.1208 J0.154
G3 X6.7417 Y0.4864 I-0.1445 J0.1452
G3 X6.7555 Y0.5056 I-0.1798 J0.1433
G3 X6.7678 Y0.5271 I-0.2133 J0.1367
G3 X6.778 Y0.5497 I-0.2412 J0.1232
G3 X6.787 Y0.575 I-0.295 J0.1181
G3 X6.7937 Y0.601 I-0.3069 J0.0937
G3 X6.7987 Y0.6296 I-0.3679 J0.0794
G3 X6.8016 Y0.6586 I-0.4076 J0.0554
G3 X6.8027 Y0.6905 I-0.4955 J0.032
G3 X6.8016 Y0.7225 I-0.4983 J0
G3 X6.7987 Y0.7516 I-0.4161 J-0.0268
G3 X6.7937 Y0.7804 I-0.3801 J-0.0514
G3 X6.787 Y0.8067 I-0.3232 J-0.0691
G3 X6.778 Y0.8324 I-0.3076 J-0.0928
G3 X6.7678 Y0.8551 I-0.252 J-0.0999
G3 X6.7554 Y0.8767 I-0.2249 J-0.1141
G3 X6.7417 Y0.8959 I-0.1909 J-0.1218
G3 X6.726 Y0.9135 I-0.1602 J-0.1276
G3 X6.7088 Y0.9287 I-0.1379 J-0.1385
G3 X6.6898 Y0.9418 I-0.1212 J-0.1544
G3 X6.6689 Y0.9531 I-0.1088 J-0.1784
G3 X6.6468 Y0.9618 I-0.085 J-0.1835
G3 X6.6229 Y0.9681 I-0.0682 J-0.2081
G3 X6.5984 Y0.9718 I-0.0472 J-0.2288
G3 X6.5715 Y0.9731 I-0.0269 J-0.2747
G3 X6.5441 Y0.9718 I0 J-0.2778
G3 X6.5194 Y0.968 I0.0226 J-0.2269
G3 X6.4954 Y0.9614 I0.0436 J-0.206
G3 X6.4736 Y0.9524 I0.0608 J-0.1793
G3 X6.4529 Y0.941 I0.0938 J-0.1933
G3 X6.4342 Y0.9276 I0.1085 J-0.1725
G3 X6.417 Y0.9123 I0.1271 J-0.159
G3 X6.4013 Y0.8947 I0.1514 J-0.1507
G3 X6.3876 Y0.8755 I0.1766 J-0.1407
G3 X6.3753 Y0.8538 I0.2121 J-0.1354
G3 X6.3651 Y0.8311 I0.2413 J-0.1223
G3 X6.3561 Y0.8055 I0.2984 J-0.1182
G3 X6.3494 Y0.7792 I0.3216 J-0.0968
G3 X6.3444 Y0.7507 I0.3729 J-0.0801
G3 X6.3415 Y0.7219 I0.4066 J-0.0555
G3 X6.3404 Y0.6905 I0.4804 J-0.0313
G0 Z0.125
G0 X7.0049 Y0.6905
G1 Z-0.01 F10
G2 X7.0027 Y0.6348 I-0.7056 J0 F40
G2 X6.9965 Y0.5855 I-0.5592 J0.0443
G2 X6.9859 Y0.537 I-0.4973 J0.0842
G2 X6.9716 Y0.494 I-0.4061 J0.1107
G2 X6.953 Y0.4526 I-0.4475 J0.1756
G2 X6.9322 Y0.4161 I-0.3674 J0.1859
G2 X6.9077 Y0.3821 I-0.3264 J0.2094
G2 X6.8805 Y0.3521 I-0.2803 J0.2261
G2 X6.8503 Y0.3252 I-0.2579 J0.2609
G2 X6.8173 Y0.302 I-0.2269 J0.2867
G2 X6.7819 Y0.2824 I-0.1983 J0.3171
G2 X6.743 Y0.266 I-0.1783 J0.3683
G2 X6.7026 Y0.2534 I-0.1576 J0.4351
G2 X6.6602 Y0.2443 I-0.1231 J0.4701
G2 X6.6172 Y0.239 I-0.0841 J0.4988
G2 X6.5715 Y0.2371 I-0.0457 J0.5609
G2 X6.5271 Y0.239 I0 J0.5346
G2 X6.4849 Y0.2443 I0.0407 J0.4884
G2 X6.4433 Y0.2534 I0.0806 J0.4691
G2 X6.4032 Y0.266 I0.1189 J0.4479
G2 X6.3646 Y0.2824 I0.1418 J0.3881
G2 X6.3291 Y0.302 I0.1683 J0.3468
G2 X6.2959 Y0.3252 I0.2011 J0.3229
G2 X6.2651 Y0.3521 I0.2387 J0.3054
G2 X6.2374 Y0.3821 I0.2524 J0.2608
G2 X6.2123 Y0.4161 I0.2987 J0.246
G2 X6.191 Y0.4526 I0.3422 J0.2241
G2 X6.1721 Y0.494 I0.4215 J0.2176
G2 X6.1576 Y0.537 I0.3858 J0.1544
G2 X6.1467 Y0.5855 I0.4777 J0.1328
G2 X6.1405 Y0.6348 I0.5427 J0.0937
G2 X6.1382 Y0.6905 I0.6897 J0.0557
G2 X6.1405 Y0.7462 I0.6678 J0
G2 X6.147 Y0.7956 I0.5306 J-0.0444
G2 X6.1583 Y0.844 I0.473 J-0.0846
G2 X6.1734 Y0.8871 I0.3899 J-0.1124
G2 X6.1929 Y0.9285 I0.4519 J-0.1874
G2 X6.2147 Y0.9652 I0.376 J-0.199
G2 X6.2401 Y0.9993 I0.3361 J-0.2236
G2 X6.2682 Y1.0297 I0.2923 J-0.2425
G2 X6.2994 Y1.0569 I0.2779 J-0.287
G2 X6.3326 Y1.0802 I0.2379 J-0.303
G2 X6.3681 Y1.1 I0.2055 J-0.3276
G2 X6.4064 Y1.1163 I0.1789 J-0.3656
G2 X6.4461 Y1.129 I0.1604 J-0.4356
G2 X6.4869 Y1.138 I0.1212 J-0.4502
G2 X6.5284 Y1.1434 I0.0819 J-0.4678
G2 X6.5715 Y1.1452 I0.0432 J-0.5057
G2 X6.616 Y1.1434 I0 J-0.535
G2 X6.6582 Y1.138 I-0.0407 J-0.4886
G2 X6.6998 Y1.1289 I-0.0806 J-0.4692
G2 X6.7399 Y1.1163 I-0.1189 J-0.4478
G2 X6.7785 Y1.0999 I-0.1394 J-0.3816
G2 X6.814 Y1.0802 I-0.1667 J-0.3421
G2 X6.8471 Y1.0568 I-0.2001 J-0.3191
G2 X6.878 Y1.0297 I-0.2393 J-0.3033
G2 X6.9058 Y0.9993 I-0.2595 J-0.2651
G2 X6.9308 Y0.9652 I-0.3049 J-0.2492
G2 X6.9521 Y0.9285 I-0.3477 J-0.2267
G2 X6.971 Y0.8871 I-0.4252 J-0.219
G2 X6.9855 Y0.844 I-0.3859 J-0.1543
G2 X6.9964 Y0.7956 I-0.4781 J-0.1328
G2 X7.0026 Y0.7462 I-0.5432 J-0.0937
G2 X7.0049 Y0.6905 I-0.6906 J-0.0557
G0 Z0.125
G0 X7.9912 Y0.8965
G1 Z-0.01 F10
G2 X7.99 Y0.8728 I-0.237 J0 F40
G2 X7.9865 Y0.8497 I-0.2267 J0.0228
G2 X7.9807 Y0.8272 I-0.2234 J0.0459
G2 X7.9724 Y0.8048 I-0.2271 J0.0715
G2 X7.9623 Y0.7832 I-0.3646 J0.1563
G2 X7.9507 Y0.7617 I-0.3716 J0.1865
G2 X7.9379 Y0.7409 I-0.371 J0.2144
G2 X7.9234 Y0.7201 I-0.3849 J0.2528
G2 X7.9079 Y0.7 I-0.5278 J0.3898
G2 X7.8914 Y0.68 I-0.5353 J0.4282
G2 X7.8741 Y0.6607 I-0.5316 J0.4593
G2 X7.8556 Y0.6416 I-0.5427 J0.505
G1 X7.7815 Y0.57
G3 X7.7721 Y0.5611 I0.8861 J-0.9498
G3 X7.7618 Y0.5513 I1.0881 J-1.1433
G3 X7.7517 Y0.5413 I1.2053 J-1.2439
G3 X7.7406 Y0.5304 I1.4521 J-1.4741
G1 X7.6986 Y0.4858
G3 X7.6886 Y0.4744 I1.1214 J-0.996
G3 X7.6796 Y0.464 I0.9432 J-0.8208
G3 X7.6707 Y0.4534 I0.8658 J-0.7369
G3 X7.6628 Y0.4437 I0.7169 J-0.5953
G3 X7.6552 Y0.4338 I0.1702 J-0.1375
G3 X7.65 Y0.426 I0.0998 J-0.0716
G3 X7.6456 Y0.4178 I0.0757 J-0.046
G3 X7.6433 Y0.4117 I0.0391 J-0.0185
G1 X8.0176 Y0.4117
G1 X8.0176 Y0.2547
G1 X7.4373 Y0.2547
G2 X7.4363 Y0.2616 I0.1145 J0.0207
G2 X7.4354 Y0.2704 I0.1829 J0.0218
G2 X7.435 Y0.2792 I0.2268 J0.0161
G2 X7.4348 Y0.2899 I0.3344 J0.0107
G1 X7.4348 Y0.2998
G1 X7.4348 Y0.3081
G1 X7.4348 Y0.3148
G1 X7.4348 Y0.32
G2 X7.4361 Y0.3501 I0.3578 J0
G2 X7.4397 Y0.3778 I0.3087 J-0.026
G2 X7.4458 Y0.4051 I0.2878 J-0.0507
G2 X7.4543 Y0.4306 I0.2595 J-0.0719
G2 X7.4648 Y0.4553 I0.3938 J-0.1527
G2 X7.4767 Y0.4791 I0.3744 J-0.1733
G2 X7.4902 Y0.502 I0.3612 J-0.1964
G2 X7.5052 Y0.5241 I0.3512 J-0.2214
G2 X7.5213 Y0.5454 I0.4675 J-0.3386
G2 X7.5386 Y0.566 I0.457 J-0.3645
G2 X7.5568 Y0.5859 I0.4444 J-0.3892
G2 X7.5761 Y0.6051 I0.4388 J-0.4211
G1 X7.6546 Y0.6805
G3 X7.6697 Y0.6949 I-6.5538 J6.8409
G3 X7.6838 Y0.7086 I-5.8415 J6.0705
G3 X7.6979 Y0.7223 I-5.5113 J5.7006
G3 X7.7111 Y0.7351 I-4.8745 J5.0171
G3 X7.7242 Y0.7482 I-0.5266 J0.5392
G3 X7.7359 Y0.7606 I-0.4648 J0.4531
G3 X7.7474 Y0.7733 I-0.4416 J0.4084
G3 X7.7576 Y0.7854 I-0.388 J0.3389
G3 X7.7673 Y0.7979 I-0.2179 J0.1789
G3 X7.7755 Y0.8099 I-0.1921 J0.1404
G3 X7.7829 Y0.8223 I-0.1846 J0.1184
G3 X7.789 Y0.8343 I-0.1653 J0.0911
G3 X7.794 Y0.8468 I-0.1205 J0.0556
G3 X7.7975 Y0.859 I-0.1118 J0.0384
G3 X7.7996 Y0.8715 I-0.111 J0.0253
G3 X7.8003 Y0.884 I-0.1104 J0.0125
G3 X7.798 Y0.9112 I-0.1655 J0
G3 X7.7924 Y0.9311 I-0.0937 J-0.0156
G3 X7.7824 Y0.9488 I-0.0702 J-0.0283
G3 X7.7689 Y0.9618 I-0.0509 J-0.0389
G3 X7.7525 Y0.9716 I-0.064 J-0.0889
G3 X7.7337 Y0.9788 I-0.0523 J-0.1085
G3 X7.714 Y0.9829 I-0.0372 J-0.1282
G3 X7.691 Y0.9844 I-0.023 J-0.1742
G3 X7.6741 Y0.9838 I0 J-0.2082
G3 X7.6582 Y0.9818 I0.0152 J-0.1867
G3 X7.6426 Y0.9784 I0.0299 J-0.1776
G3 X7.6276 Y0.9738 I0.0434 J-0.166
G3 X7.613 Y0.9681 I0.124 J-0.3427
G3 X7.5994 Y0.9621 I0.1248 J-0.3035
G3 X7.586 Y0.9556 I0.1317 J-0.2831
G3 X7.5736 Y0.9486 I0.1322 J-0.2521
G3 X7.5615 Y0.9412 I0.2233 J-0.3784
G3 X7.5508 Y0.9342 I0.1896 J-0.2988
G3 X7.5405 Y0.9268 I0.179 J-0.2609
G3 X7.5315 Y0.9198 I0.1505 J-0.2014
G3 X7.5228 Y0.9125 I0.4664 J-0.5685
G3 X7.5161 Y0.9067 I0.2834 J-0.3348
G3 X7.5096 Y0.9008 I0.2157 J-0.2447
G3 X7.5052 Y0.8965 I0.1113 J-0.1196
G1 X7.4122 Y1.0271
G2 X7.4408 Y1.0516 I0.3033 J-0.3254
G2 X7.472 Y1.0741 I0.2859 J-0.3642
G2 X7.505 Y1.0939 I0.2634 J-0.4
G2 X7.541 Y1.1119 I0.2525 J-0.4598
G2 X7.5784 Y1.1265 I0.1528 J-0.3372
G2 X7.6171 Y1.1369 I0.115 J-0.3507
G2 X7.6567 Y1.1431 I0.078 J-0.3692
G2 X7.6986 Y1.1452 I0.0419 J-0.4097
G2 X7.7368 Y1.1441 I0 J-0.6209
G2 X7.7698 Y1.1408 I-0.0288 J-0.4669
G2 X7.8025 Y1.1351 I-0.0537 J-0.4022
G2 X7.8304 Y1.1276 I-0.0656 J-0.3011
G2 X7.8576 Y1.1176 I-0.0975 J-0.3061
G2 X7.8808 Y1.1064 I-0.0996 J-0.2366
G2 X7.9028 Y1.0929 I-0.1113 J-0.2042
G2 X7.9215 Y1.078 I-0.1143 J-0.1635
G2 X7.9383 Y1.0611 I-0.1312 J-0.1467
G2 X7.9526 Y1.0425 I-0.1419 J-0.1243
G2 X7.9645 Y1.0224 I-0.1576 J-0.1068
G2 X7.9743 Y1.0002 I-0.1832 J-0.0937
G2 X7.9816 Y0.9769 I-0.2296 J-0.085
G2 X7.987 Y0.9513 I-0.2735 J-0.0712
G2 X7.9901 Y0.9253 I-0.3042 J-0.0498
G2 X7.9912 Y0.8965 I-0.3724 J-0.0288
G0 Z0.125
(remove M5 and M30)
