(.../pcb-gcode-3.6.2.4/pcb-gcode.ulp)
(Copyright 2005 - 2012 by John Johnson)
(See readme.txt for licensing terms.)
(This file generated from the board:)
(/home/yair/dev/eegfckr/eggfckr.brd)
(Current profile is .../pcb-gcode-3.6.2.4/profiles/emc.pp  )
(This file generated 2/10/16 1:09 AM)
(Settings from pcb-machine.h)
(Settings from pcb-defaults.h)
(Generated top outlines, )
(Unit of measure: mm)
(mm Mode)
G21
(Absolute Coordinates)
G90
(servo up)
M3 S115
(G00 - )rapid move)
G00 Z0.5000
G00 X0.0000 Y0.0000
(delay 3sec)
G04 P3.000000
G00 X0.1428 Y0.2698
(servo down)
M3 S95
(linear move)
G01 X0.1428 Y0.2698
G01 X0.1357 Y0.2783
G01 X0.1298 Y0.2877
G01 X0.1253 Y0.2978
G01 X0.1222 Y0.3085
G01 X0.1207 Y0.3195
G01 X0.1207 Y0.3305
G01 X0.1222 Y0.3415
G01 X0.1253 Y0.3522
G01 X0.1298 Y0.3623
G01 X0.1357 Y0.3717
G01 X0.1428 Y0.3802
G01 X0.1511 Y0.3876
G01 X0.1603 Y0.3938
G01 X0.1625 Y0.3949
G01 X0.1625 Y0.4155
G01 X0.1845 Y0.4375
G01 X0.2155 Y0.4375
G01 X0.2296 Y0.4234
G01 X0.2608 Y0.4170
G01 X0.2969 Y0.4111
G01 X0.3332 Y0.4066
G01 X0.3697 Y0.4035
G01 X0.4063 Y0.4020
G01 X0.4429 Y0.4018
G01 X0.4795 Y0.4032
G01 X0.4977 Y0.4044
G01 X0.5006 Y0.4046
G01 X0.6920 Y0.4194
G01 X0.6943 Y0.4280
G01 X0.6988 Y0.4385
G01 X0.7046 Y0.4483
G01 X0.7117 Y0.4573
G01 X0.7199 Y0.4652
G01 X0.7290 Y0.4720
G01 X0.7391 Y0.4775
G01 X0.7497 Y0.4816
G01 X0.7608 Y0.4842
G01 X0.7721 Y0.4854
G01 X0.7835 Y0.4850
G01 X0.7948 Y0.4831
G01 X0.8057 Y0.4797
G01 X0.8160 Y0.4749
G01 X0.8257 Y0.4688
G01 X0.8344 Y0.4614
G01 X0.8420 Y0.4529
G01 X0.8485 Y0.4435
G01 X0.8536 Y0.4333
G01 X0.8574 Y0.4226
G01 X0.8579 Y0.4202
G01 X0.8625 Y0.4155
G01 X0.8625 Y0.3845
G01 X0.8579 Y0.3798
G01 X0.8574 Y0.3774
G01 X0.8536 Y0.3667
G01 X0.8485 Y0.3565
G01 X0.8420 Y0.3471
G01 X0.8344 Y0.3386
G01 X0.8257 Y0.3312
G01 X0.8160 Y0.3251
G01 X0.8057 Y0.3203
G01 X0.7948 Y0.3169
G01 X0.7835 Y0.3150
G01 X0.7721 Y0.3146
G01 X0.7608 Y0.3158
G01 X0.7497 Y0.3184
G01 X0.7391 Y0.3225
G01 X0.7290 Y0.3280
G01 X0.7199 Y0.3348
G01 X0.7117 Y0.3427
G01 X0.7046 Y0.3517
G01 X0.6992 Y0.3607
G01 X0.5034 Y0.3457
G01 X0.5023 Y0.3456
G01 X0.4828 Y0.3441
G01 X0.4439 Y0.3427
G01 X0.4049 Y0.3428
G01 X0.3660 Y0.3445
G01 X0.3271 Y0.3477
G01 X0.2884 Y0.3525
G01 X0.2735 Y0.3549
G01 X0.2764 Y0.3469
G01 X0.2787 Y0.3361
G01 X0.2795 Y0.3250
G01 X0.2787 Y0.3139
G01 X0.2764 Y0.3031
G01 X0.2726 Y0.2927
G01 X0.2674 Y0.2829
G01 X0.2609 Y0.2739
G01 X0.2532 Y0.2659
G01 X0.2445 Y0.2591
G01 X0.2349 Y0.2535
G01 X0.2246 Y0.2494
G01 X0.2138 Y0.2467
G01 X0.2028 Y0.2455
G01 X0.1917 Y0.2459
G01 X0.1808 Y0.2479
G01 X0.1702 Y0.2513
G01 X0.1603 Y0.2562
G01 X0.1511 Y0.2624
G01 X0.1428 Y0.2698
M3 S115
G00 X0.1625 Y0.4845
M3 S95
G01 X0.1625 Y0.5051
G01 X0.1603 Y0.5062
G01 X0.1511 Y0.5124
G01 X0.1428 Y0.5198
G01 X0.1357 Y0.5283
G01 X0.1298 Y0.5377
G01 X0.1253 Y0.5478
G01 X0.1222 Y0.5585
G01 X0.1207 Y0.5695
G01 X0.1207 Y0.5805
G01 X0.1222 Y0.5915
G01 X0.1253 Y0.6022
G01 X0.1298 Y0.6123
G01 X0.1357 Y0.6217
G01 X0.1428 Y0.6302
G01 X0.1511 Y0.6376
G01 X0.1603 Y0.6438
G01 X0.1702 Y0.6487
G01 X0.1808 Y0.6521
G01 X0.1917 Y0.6541
G01 X0.2028 Y0.6545
G01 X0.2138 Y0.6533
G01 X0.2246 Y0.6506
G01 X0.2349 Y0.6465
G01 X0.2445 Y0.6409
G01 X0.2532 Y0.6341
G01 X0.2609 Y0.6261
G01 X0.2625 Y0.6239
G01 X0.3110 Y0.6380
G01 X0.5510 Y0.7025
G01 X0.7922 Y0.7619
G01 X1.0347 Y0.8162
G01 X1.2782 Y0.8655
G01 X1.5227 Y0.9096
G01 X1.6003 Y0.9220
G01 X1.6021 Y0.9259
G01 X1.6070 Y0.9335
G01 X1.6131 Y0.9401
G01 X1.6202 Y0.9456
G01 X1.6281 Y0.9499
G01 X1.6366 Y0.9528
G01 X1.6455 Y0.9543
G01 X1.6545 Y0.9543
G01 X1.6634 Y0.9528
G01 X1.6719 Y0.9499
G01 X1.6798 Y0.9456
G01 X1.6869 Y0.9401
G01 X1.6907 Y0.9360
G01 X1.7432 Y0.9431
G01 X1.8087 Y0.9503
G01 X1.8744 Y0.9560
G01 X1.9402 Y0.9601
G01 X2.0061 Y0.9627
G01 X2.0720 Y0.9636
G01 X2.1379 Y0.9630
G01 X2.2037 Y0.9608
G01 X2.2695 Y0.9571
G01 X2.2995 Y0.9546
G01 X2.3022 Y0.9544
G01 X2.3024 Y0.9544
G01 X2.3053 Y0.9542
G01 X2.3204 Y0.9529
G01 X2.3564 Y0.9485
G01 X2.3921 Y0.9425
G01 X2.4275 Y0.9350
G01 X2.4626 Y0.9259
G01 X2.4972 Y0.9154
G01 X2.5314 Y0.9034
G01 X2.5650 Y0.8900
G01 X2.5980 Y0.8751
G01 X2.6304 Y0.8589
G01 X2.6620 Y0.8413
G01 X2.6929 Y0.8223
G01 X2.7217 Y0.8029
G01 X2.7273 Y0.8072
G01 X2.7393 Y0.8144
G01 X2.7521 Y0.8203
G01 X2.7654 Y0.8248
G01 X2.7790 Y0.8278
G01 X2.7930 Y0.8293
G01 X2.8070 Y0.8293
G01 X2.8210 Y0.8278
G01 X2.8346 Y0.8248
G01 X2.8479 Y0.8203
G01 X2.8607 Y0.8144
G01 X2.8727 Y0.8072
G01 X2.8838 Y0.7987
G01 X2.8940 Y0.7891
G01 X2.9031 Y0.7784
G01 X2.9110 Y0.7668
G01 X2.9175 Y0.7544
G01 X2.9227 Y0.7413
G01 X2.9265 Y0.7278
G01 X2.9287 Y0.7140
G01 X2.9295 Y0.7000
G01 X2.9287 Y0.6860
G01 X2.9265 Y0.6722
G01 X2.9227 Y0.6587
G01 X2.9175 Y0.6456
G01 X2.9173 Y0.6452
G01 X2.9198 Y0.6436
G01 X2.9438 Y0.6291
G01 X2.9685 Y0.6158
G01 X2.9938 Y0.6035
G01 X3.0196 Y0.5925
G01 X3.0459 Y0.5826
G01 X3.0566 Y0.5789
G01 X3.3714 Y0.5396
G01 X3.3707 Y0.5445
G01 X3.3707 Y0.5555
G01 X3.3722 Y0.5665
G01 X3.3753 Y0.5772
G01 X3.3798 Y0.5873
G01 X3.3857 Y0.5967
G01 X3.3928 Y0.6052
G01 X3.4011 Y0.6126
G01 X3.4103 Y0.6188
G01 X3.4202 Y0.6237
G01 X3.4308 Y0.6271
G01 X3.4417 Y0.6291
G01 X3.4528 Y0.6295
G01 X3.4638 Y0.6283
G01 X3.4746 Y0.6256
G01 X3.4849 Y0.6215
G01 X3.4945 Y0.6159
G01 X3.5032 Y0.6091
G01 X3.5109 Y0.6011
G01 X3.5174 Y0.5921
G01 X3.5226 Y0.5823
G01 X3.5264 Y0.5719
G01 X3.5287 Y0.5611
G01 X3.5295 Y0.5500
G01 X3.5287 Y0.5389
G01 X3.5264 Y0.5281
G01 X3.5226 Y0.5177
G01 X3.5174 Y0.5079
G01 X3.5109 Y0.4989
G01 X3.5032 Y0.4909
G01 X3.4945 Y0.4841
G01 X3.4849 Y0.4785
G01 X3.4794 Y0.4763
G01 X3.4655 Y0.4625
G01 X3.4345 Y0.4625
G01 X3.4234 Y0.4736
G01 X3.0464 Y0.5207
G01 X3.0436 Y0.5211
G01 X3.0435 Y0.5211
G01 X3.0408 Y0.5220
G01 X3.0262 Y0.5267
G01 X2.9975 Y0.5376
G01 X2.9692 Y0.5497
G01 X2.9416 Y0.5631
G01 X2.9145 Y0.5777
G01 X2.8882 Y0.5935
G01 X2.8804 Y0.5987
G01 X2.8727 Y0.5928
G01 X2.8607 Y0.5856
G01 X2.8479 Y0.5797
G01 X2.8346 Y0.5752
G01 X2.8210 Y0.5722
G01 X2.8070 Y0.5707
G01 X2.7930 Y0.5707
G01 X2.7790 Y0.5722
G01 X2.7654 Y0.5752
G01 X2.7521 Y0.5797
G01 X2.7393 Y0.5856
G01 X2.7273 Y0.5928
G01 X2.7162 Y0.6013
G01 X2.7060 Y0.6109
G01 X2.6969 Y0.6216
G01 X2.6890 Y0.6332
G01 X2.6825 Y0.6456
G01 X2.6773 Y0.6587
G01 X2.6735 Y0.6722
G01 X2.6713 Y0.6860
G01 X2.6705 Y0.7000
G01 X2.6713 Y0.7140
G01 X2.6735 Y0.7278
G01 X2.6773 Y0.7413
G01 X2.6825 Y0.7544
G01 X2.6839 Y0.7570
G01 X2.6608 Y0.7725
G01 X2.6321 Y0.7902
G01 X2.6027 Y0.8066
G01 X2.5726 Y0.8217
G01 X2.5419 Y0.8355
G01 X2.5106 Y0.8480
G01 X2.4788 Y0.8592
G01 X2.4466 Y0.8689
G01 X2.4140 Y0.8773
G01 X2.3810 Y0.8843
G01 X2.3478 Y0.8899
G01 X2.3144 Y0.8941
G01 X2.2976 Y0.8956
G01 X2.2655 Y0.8980
G01 X2.2011 Y0.9017
G01 X2.1366 Y0.9038
G01 X2.0721 Y0.9044
G01 X2.0076 Y0.9035
G01 X1.9432 Y0.9010
G01 X1.8788 Y0.8970
G01 X1.8145 Y0.8914
G01 X1.7504 Y0.8844
G01 X1.7024 Y0.8779
G01 X1.7151 Y0.8579
G01 X1.7296 Y0.8323
G01 X1.7426 Y0.8059
G01 X1.7543 Y0.7789
G01 X1.7641 Y0.7526
G01 X1.7719 Y0.7499
G01 X1.7798 Y0.7456
G01 X1.7869 Y0.7401
G01 X1.7930 Y0.7335
G01 X1.7979 Y0.7259
G01 X1.8015 Y0.7177
G01 X1.8038 Y0.7090
G01 X1.8045 Y0.7000
G01 X1.8038 Y0.6910
G01 X1.8015 Y0.6823
G01 X1.7979 Y0.6741
G01 X1.7930 Y0.6665
G01 X1.7890 Y0.6621
G01 X1.8228 Y0.5299
G01 X1.8233 Y0.5295
G01 X1.9509 Y0.5295
G01 X1.9525 Y0.5288
G01 X1.9538 Y0.5275
G01 X1.9545 Y0.5259
G01 X1.9545 Y0.4741
G01 X1.9538 Y0.4725
G01 X1.9525 Y0.4712
G01 X1.9509 Y0.4705
G01 X1.8233 Y0.4705
G01 X1.8178 Y0.4668
G01 X1.8109 Y0.4639
G01 X1.8037 Y0.4625
G01 X1.7963 Y0.4625
G01 X1.7891 Y0.4639
G01 X1.7822 Y0.4668
G01 X1.7761 Y0.4709
G01 X1.7709 Y0.4761
G01 X1.7668 Y0.4822
G01 X1.7639 Y0.4891
G01 X1.7625 Y0.4963
G01 X1.7625 Y0.5037
G01 X1.7639 Y0.5109
G01 X1.7657 Y0.5151
G01 X1.7314 Y0.6489
G01 X1.7281 Y0.6501
G01 X1.7202 Y0.6544
G01 X1.7131 Y0.6599
G01 X1.7070 Y0.6665
G01 X1.7021 Y0.6741
G01 X1.6985 Y0.6823
G01 X1.6962 Y0.6910
G01 X1.6955 Y0.7000
G01 X1.6962 Y0.7090
G01 X1.6985 Y0.7177
G01 X1.7021 Y0.7259
G01 X1.7070 Y0.7335
G01 X1.7077 Y0.7343
G01 X1.6994 Y0.7568
G01 X1.6889 Y0.7810
G01 X1.6795 Y0.8000
G01 X1.6795 Y0.4174
G01 X1.6780 Y0.4022
G01 X1.6751 Y0.3872
G01 X1.6707 Y0.3726
G01 X1.6649 Y0.3585
G01 X1.6578 Y0.3450
G01 X1.6493 Y0.3323
G01 X1.6397 Y0.3204
G01 X1.6290 Y0.3096
G01 X1.6173 Y0.2998
G01 X1.6047 Y0.2912
G01 X1.5913 Y0.2839
G01 X1.5773 Y0.2780
G01 X1.5627 Y0.2734
G01 X1.5478 Y0.2702
G01 X1.5326 Y0.2685
G01 X1.5202 Y0.2684
G01 X1.5178 Y0.2668
G01 X1.5109 Y0.2639
G01 X1.5037 Y0.2625
G01 X1.4963 Y0.2625
G01 X1.4891 Y0.2639
G01 X1.4822 Y0.2668
G01 X1.4767 Y0.2705
G01 X1.3741 Y0.2705
G01 X1.3725 Y0.2712
G01 X1.3712 Y0.2725
G01 X1.3705 Y0.2741
G01 X1.3705 Y0.3259
G01 X1.3712 Y0.3275
G01 X1.3725 Y0.3288
G01 X1.3741 Y0.3295
G01 X1.4767 Y0.3295
G01 X1.4822 Y0.3332
G01 X1.4891 Y0.3361
G01 X1.4963 Y0.3375
G01 X1.5037 Y0.3375
G01 X1.5109 Y0.3361
G01 X1.5178 Y0.3332
G01 X1.5239 Y0.3291
G01 X1.5255 Y0.3276
G01 X1.5290 Y0.3276
G01 X1.5384 Y0.3287
G01 X1.5477 Y0.3306
G01 X1.5567 Y0.3335
G01 X1.5655 Y0.3372
G01 X1.5738 Y0.3417
G01 X1.5817 Y0.3471
G01 X1.5890 Y0.3532
G01 X1.5956 Y0.3599
G01 X1.6016 Y0.3673
G01 X1.6068 Y0.3752
G01 X1.6113 Y0.3836
G01 X1.6149 Y0.3924
G01 X1.6176 Y0.4015
G01 X1.6195 Y0.4108
G01 X1.6204 Y0.4203
G01 X1.6205 Y0.4250
G01 X1.6205 Y0.8542
G01 X1.6202 Y0.8544
G01 X1.6131 Y0.8599
G01 X1.6098 Y0.8635
G01 X1.5327 Y0.8508
G01 X1.2894 Y0.8069
G01 X1.0471 Y0.7579
G01 X0.8059 Y0.7038
G01 X0.5658 Y0.6447
G01 X0.3271 Y0.5806
G01 X0.2789 Y0.5668
G01 X0.2787 Y0.5639
G01 X0.2764 Y0.5531
G01 X0.2726 Y0.5427
G01 X0.2674 Y0.5329
G01 X0.2609 Y0.5239
G01 X0.2532 Y0.5159
G01 X0.2465 Y0.5107
G01 X0.2440 Y0.5032
G01 X0.2398 Y0.4952
G01 X0.2375 Y0.4921
G01 X0.2375 Y0.4845
G01 X0.2155 Y0.4625
G01 X0.1845 Y0.4625
G01 X0.1625 Y0.4845
M3 S115
G00 X0.9975 Y0.4768
M3 S95
G01 X1.0067 Y0.4901
G01 X1.0169 Y0.5025
G01 X1.0282 Y0.5141
G01 X1.0404 Y0.5246
G01 X1.0535 Y0.5341
G01 X1.0673 Y0.5424
G01 X1.0817 Y0.5495
G01 X1.0872 Y0.5517
G01 X1.4970 Y0.7119
G01 X1.4985 Y0.7177
G01 X1.5021 Y0.7259
G01 X1.5070 Y0.7335
G01 X1.5131 Y0.7401
G01 X1.5202 Y0.7456
G01 X1.5281 Y0.7499
G01 X1.5366 Y0.7528
G01 X1.5455 Y0.7543
G01 X1.5545 Y0.7543
G01 X1.5634 Y0.7528
G01 X1.5719 Y0.7499
G01 X1.5798 Y0.7456
G01 X1.5869 Y0.7401
G01 X1.5930 Y0.7335
G01 X1.5979 Y0.7259
G01 X1.6015 Y0.7177
G01 X1.6038 Y0.7090
G01 X1.6045 Y0.7000
G01 X1.6038 Y0.6910
G01 X1.6015 Y0.6823
G01 X1.5979 Y0.6741
G01 X1.5930 Y0.6665
G01 X1.5869 Y0.6599
G01 X1.5798 Y0.6544
G01 X1.5719 Y0.6501
G01 X1.5634 Y0.6472
G01 X1.5545 Y0.6457
G01 X1.5455 Y0.6457
G01 X1.5366 Y0.6472
G01 X1.5281 Y0.6501
G01 X1.5202 Y0.6544
G01 X1.5174 Y0.6565
G01 X1.1134 Y0.4986
G01 X1.1107 Y0.4975
G01 X1.1056 Y0.4954
G01 X1.0956 Y0.4905
G01 X1.0861 Y0.4847
G01 X1.0771 Y0.4782
G01 X1.0687 Y0.4710
G01 X1.0609 Y0.4630
G01 X1.0539 Y0.4544
G01 X1.0476 Y0.4453
G01 X1.0421 Y0.4356
G01 X1.0374 Y0.4256
G01 X1.0336 Y0.4151
G01 X1.0307 Y0.4044
G01 X1.0287 Y0.3935
G01 X1.0276 Y0.3824
G01 X1.0275 Y0.3713
G01 X1.0284 Y0.3602
G01 X1.0291 Y0.3547
G01 X1.0299 Y0.3504
G01 X1.0321 Y0.3419
G01 X1.0352 Y0.3336
G01 X1.0390 Y0.3257
G01 X1.0435 Y0.3182
G01 X1.0488 Y0.3112
G01 X1.0547 Y0.3047
G01 X1.0612 Y0.2988
G01 X1.0682 Y0.2935
G01 X1.0757 Y0.2890
G01 X1.0836 Y0.2852
G01 X1.0919 Y0.2821
G01 X1.1004 Y0.2799
G01 X1.1047 Y0.2791
G01 X1.1076 Y0.2787
G01 X1.2550 Y0.2549
G01 X1.4021 Y0.2296
G01 X1.4025 Y0.2295
G01 X1.4767 Y0.2295
G01 X1.4822 Y0.2332
G01 X1.4891 Y0.2361
G01 X1.4963 Y0.2375
G01 X1.5037 Y0.2375
G01 X1.5109 Y0.2361
G01 X1.5178 Y0.2332
G01 X1.5239 Y0.2291
G01 X1.5291 Y0.2239
G01 X1.5332 Y0.2178
G01 X1.5361 Y0.2109
G01 X1.5363 Y0.2099
G01 X1.5637 Y0.2064
G01 X1.6275 Y0.1999
G01 X1.6915 Y0.1949
G01 X1.7555 Y0.1914
G01 X1.7635 Y0.1911
G01 X1.7625 Y0.1963
G01 X1.7625 Y0.2037
G01 X1.7639 Y0.2109
G01 X1.7668 Y0.2178
G01 X1.7709 Y0.2239
G01 X1.7761 Y0.2291
G01 X1.7822 Y0.2332
G01 X1.7891 Y0.2361
G01 X1.7963 Y0.2375
G01 X1.8037 Y0.2375
G01 X1.8109 Y0.2361
G01 X1.8178 Y0.2332
G01 X1.8239 Y0.2291
G01 X1.8291 Y0.2239
G01 X1.8332 Y0.2178
G01 X1.8361 Y0.2109
G01 X1.8375 Y0.2037
G01 X1.8375 Y0.1963
G01 X1.8361 Y0.1891
G01 X1.8838 Y0.1887
G01 X1.9479 Y0.1896
G01 X2.0120 Y0.1920
G01 X2.0760 Y0.1958
G01 X2.1400 Y0.2011
G01 X2.1719 Y0.2043
G01 X2.1943 Y0.2069
G01 X2.2389 Y0.2130
G01 X2.2833 Y0.2206
G01 X2.3275 Y0.2295
G01 X2.3713 Y0.2397
G01 X2.4149 Y0.2513
G01 X2.4463 Y0.2607
G01 X2.4463 Y0.2610
G01 X2.4455 Y0.2750
G01 X2.4463 Y0.2890
G01 X2.4485 Y0.3028
G01 X2.4523 Y0.3163
G01 X2.4575 Y0.3294
G01 X2.4640 Y0.3418
G01 X2.4719 Y0.3534
G01 X2.4810 Y0.3641
G01 X2.4912 Y0.3737
G01 X2.5023 Y0.3822
G01 X2.5143 Y0.3894
G01 X2.5271 Y0.3953
G01 X2.5404 Y0.3998
G01 X2.5540 Y0.4028
G01 X2.5680 Y0.4043
G01 X2.5820 Y0.4043
G01 X2.5960 Y0.4028
G01 X2.6096 Y0.3998
G01 X2.6229 Y0.3953
G01 X2.6357 Y0.3894
G01 X2.6477 Y0.3822
G01 X2.6588 Y0.3737
G01 X2.6690 Y0.3641
G01 X2.6781 Y0.3534
G01 X2.6860 Y0.3418
G01 X2.6925 Y0.3294
G01 X2.6977 Y0.3163
G01 X2.7015 Y0.3028
G01 X2.7037 Y0.2890
G01 X2.7045 Y0.2750
G01 X2.7037 Y0.2610
G01 X2.7015 Y0.2472
G01 X2.6977 Y0.2337
G01 X2.6925 Y0.2206
G01 X2.6860 Y0.2082
G01 X2.6781 Y0.1966
G01 X2.6690 Y0.1859
G01 X2.6588 Y0.1763
G01 X2.6477 Y0.1678
G01 X2.6357 Y0.1606
G01 X2.6229 Y0.1547
G01 X2.6096 Y0.1502
G01 X2.5960 Y0.1472
G01 X2.5820 Y0.1457
G01 X2.5680 Y0.1457
G01 X2.5540 Y0.1472
G01 X2.5404 Y0.1502
G01 X2.5271 Y0.1547
G01 X2.5143 Y0.1606
G01 X2.5023 Y0.1678
G01 X2.4912 Y0.1763
G01 X2.4810 Y0.1859
G01 X2.4719 Y0.1966
G01 X2.4663 Y0.2049
G01 X2.4310 Y0.1944
G01 X2.3857 Y0.1823
G01 X2.3400 Y0.1716
G01 X2.2941 Y0.1624
G01 X2.2479 Y0.1545
G01 X2.2014 Y0.1481
G01 X2.1810 Y0.1460
G01 X2.1781 Y0.1457
G01 X2.1752 Y0.1454
G01 X2.1456 Y0.1422
G01 X2.0803 Y0.1368
G01 X2.0149 Y0.1328
G01 X1.9494 Y0.1304
G01 X1.8839 Y0.1295
G01 X1.8184 Y0.1301
G01 X1.7529 Y0.1322
G01 X1.6875 Y0.1359
G01 X1.6222 Y0.1410
G01 X1.5571 Y0.1476
G01 X1.4921 Y0.1557
G01 X1.4273 Y0.1654
G01 X1.3979 Y0.1704
G01 X1.3975 Y0.1705
G01 X1.3741 Y0.1705
G01 X1.3725 Y0.1712
G01 X1.3712 Y0.1725
G01 X1.3705 Y0.1741
G01 X1.3705 Y0.1751
G01 X1.2452 Y0.1963
G01 X1.0953 Y0.2209
G01 X1.0924 Y0.2213
G01 X1.0882 Y0.2220
G01 X1.0742 Y0.2257
G01 X1.0606 Y0.2307
G01 X1.0475 Y0.2370
G01 X1.0352 Y0.2445
G01 X1.0236 Y0.2531
G01 X1.0128 Y0.2628
G01 X1.0031 Y0.2736
G01 X0.9945 Y0.2852
G01 X0.9870 Y0.2975
G01 X0.9807 Y0.3106
G01 X0.9757 Y0.3242
G01 X0.9720 Y0.3382
G01 X0.9713 Y0.3424
G01 X0.9709 Y0.3453
G01 X0.9708 Y0.3460
G01 X0.9696 Y0.3533
G01 X0.9684 Y0.3694
G01 X0.9685 Y0.3855
G01 X0.9701 Y0.4016
G01 X0.9730 Y0.4174
G01 X0.9772 Y0.4330
G01 X0.9827 Y0.4482
G01 X0.9895 Y0.4628
G01 X0.9975 Y0.4768
M3 S115
G00 X1.0928 Y0.4552
M3 S95
G01 X1.1011 Y0.4626
G01 X1.1102 Y0.4688
G01 X1.1202 Y0.4737
G01 X1.1308 Y0.4771
G01 X1.1417 Y0.4791
G01 X1.1528 Y0.4795
G01 X1.1638 Y0.4783
G01 X1.1746 Y0.4756
G01 X1.1849 Y0.4715
G01 X1.1945 Y0.4659
G01 X1.2032 Y0.4591
G01 X1.2109 Y0.4511
G01 X1.2174 Y0.4421
G01 X1.2226 Y0.4323
G01 X1.2237 Y0.4295
G01 X1.4767 Y0.4295
G01 X1.4822 Y0.4332
G01 X1.4891 Y0.4361
G01 X1.4963 Y0.4375
G01 X1.5037 Y0.4375
G01 X1.5109 Y0.4361
G01 X1.5178 Y0.4332
G01 X1.5239 Y0.4291
G01 X1.5291 Y0.4239
G01 X1.5332 Y0.4178
G01 X1.5361 Y0.4109
G01 X1.5375 Y0.4037
G01 X1.5375 Y0.3963
G01 X1.5361 Y0.3891
G01 X1.5332 Y0.3822
G01 X1.5291 Y0.3761
G01 X1.5239 Y0.3709
G01 X1.5178 Y0.3668
G01 X1.5109 Y0.3639
G01 X1.5037 Y0.3625
G01 X1.4963 Y0.3625
G01 X1.4891 Y0.3639
G01 X1.4822 Y0.3668
G01 X1.4767 Y0.3705
G01 X1.2237 Y0.3705
G01 X1.2226 Y0.3677
G01 X1.2174 Y0.3579
G01 X1.2109 Y0.3489
G01 X1.2032 Y0.3409
G01 X1.1945 Y0.3341
G01 X1.1849 Y0.3285
G01 X1.1746 Y0.3244
G01 X1.1638 Y0.3217
G01 X1.1528 Y0.3205
G01 X1.1417 Y0.3209
G01 X1.1308 Y0.3229
G01 X1.1202 Y0.3263
G01 X1.1103 Y0.3312
G01 X1.1011 Y0.3374
G01 X1.0928 Y0.3448
G01 X1.0857 Y0.3533
G01 X1.0798 Y0.3627
G01 X1.0753 Y0.3728
G01 X1.0722 Y0.3835
G01 X1.0707 Y0.3945
G01 X1.0707 Y0.4055
G01 X1.0722 Y0.4165
G01 X1.0753 Y0.4272
G01 X1.0798 Y0.4373
G01 X1.0857 Y0.4467
G01 X1.0928 Y0.4552
M3 S115
G00 X1.4632 Y0.4645
M3 S95
G01 X1.4625 Y0.4661
G01 X1.4625 Y0.5339
G01 X1.4632 Y0.5355
G01 X1.4645 Y0.5368
G01 X1.4661 Y0.5375
G01 X1.5339 Y0.5375
G01 X1.5355 Y0.5368
G01 X1.5368 Y0.5355
G01 X1.5375 Y0.5339
G01 X1.5375 Y0.4661
G01 X1.5368 Y0.4645
G01 X1.5355 Y0.4632
G01 X1.5339 Y0.4625
G01 X1.4661 Y0.4625
G01 X1.4645 Y0.4632
G01 X1.4632 Y0.4645
M3 S115
G00 X1.7761 Y0.4291
M3 S95
G01 X1.7822 Y0.4332
G01 X1.7891 Y0.4361
G01 X1.7963 Y0.4375
G01 X1.8037 Y0.4375
G01 X1.8109 Y0.4361
G01 X1.8178 Y0.4332
G01 X1.8233 Y0.4295
G01 X1.9509 Y0.4295
G01 X1.9519 Y0.4291
G01 X2.1009 Y0.4286
G01 X2.1048 Y0.4373
G01 X2.1107 Y0.4467
G01 X2.1178 Y0.4552
G01 X2.1261 Y0.4626
G01 X2.1353 Y0.4688
G01 X2.1452 Y0.4737
G01 X2.1558 Y0.4771
G01 X2.1667 Y0.4791
G01 X2.1778 Y0.4795
G01 X2.1888 Y0.4783
G01 X2.1996 Y0.4756
G01 X2.2099 Y0.4715
G01 X2.2195 Y0.4659
G01 X2.2282 Y0.4591
G01 X2.2359 Y0.4511
G01 X2.2424 Y0.4421
G01 X2.2476 Y0.4323
G01 X2.2514 Y0.4219
G01 X2.2537 Y0.4111
G01 X2.2545 Y0.4000
G01 X2.2537 Y0.3889
G01 X2.2514 Y0.3781
G01 X2.2476 Y0.3677
G01 X2.2424 Y0.3579
G01 X2.2359 Y0.3489
G01 X2.2282 Y0.3409
G01 X2.2195 Y0.3341
G01 X2.2099 Y0.3285
G01 X2.1996 Y0.3244
G01 X2.1888 Y0.3217
G01 X2.1778 Y0.3205
G01 X2.1667 Y0.3209
G01 X2.1558 Y0.3229
G01 X2.1452 Y0.3263
G01 X2.1353 Y0.3312
G01 X2.1261 Y0.3374
G01 X2.1178 Y0.3448
G01 X2.1107 Y0.3533
G01 X2.1048 Y0.3627
G01 X2.1017 Y0.3696
G01 X1.8232 Y0.3704
G01 X1.8178 Y0.3668
G01 X1.8109 Y0.3639
G01 X1.8037 Y0.3625
G01 X1.7963 Y0.3625
G01 X1.7891 Y0.3639
G01 X1.7822 Y0.3668
G01 X1.7761 Y0.3709
G01 X1.7709 Y0.3761
G01 X1.7668 Y0.3822
G01 X1.7639 Y0.3891
G01 X1.7625 Y0.3963
G01 X1.7625 Y0.4037
G01 X1.7639 Y0.4109
G01 X1.7668 Y0.4178
G01 X1.7709 Y0.4239
G01 X1.7761 Y0.4291
M3 S115
G00 X1.7761 Y0.3291
M3 S95
G01 X1.7822 Y0.3332
G01 X1.7891 Y0.3361
G01 X1.7963 Y0.3375
G01 X1.8037 Y0.3375
G01 X1.8109 Y0.3361
G01 X1.8178 Y0.3332
G01 X1.8239 Y0.3291
G01 X1.8291 Y0.3239
G01 X1.8332 Y0.3178
G01 X1.8361 Y0.3109
G01 X1.8375 Y0.3037
G01 X1.8375 Y0.2963
G01 X1.8361 Y0.2891
G01 X1.8332 Y0.2822
G01 X1.8291 Y0.2761
G01 X1.8239 Y0.2709
G01 X1.8178 Y0.2668
G01 X1.8109 Y0.2639
G01 X1.8037 Y0.2625
G01 X1.7963 Y0.2625
G01 X1.7891 Y0.2639
G01 X1.7822 Y0.2668
G01 X1.7761 Y0.2709
G01 X1.7709 Y0.2761
G01 X1.7668 Y0.2822
G01 X1.7639 Y0.2891
G01 X1.7625 Y0.2963
G01 X1.7625 Y0.3037
G01 X1.7639 Y0.3109
G01 X1.7668 Y0.3178
G01 X1.7709 Y0.3239
G01 X1.7761 Y0.3291
M3 S115
G00 X2.3278 Y0.5548
M3 S95
G01 X2.3207 Y0.5633
G01 X2.3148 Y0.5727
G01 X2.3103 Y0.5828
G01 X2.3072 Y0.5935
G01 X2.3057 Y0.6045
G01 X2.3057 Y0.6155
G01 X2.3072 Y0.6265
G01 X2.3103 Y0.6372
G01 X2.3148 Y0.6473
G01 X2.3207 Y0.6567
G01 X2.3278 Y0.6652
G01 X2.3361 Y0.6726
G01 X2.3453 Y0.6788
G01 X2.3552 Y0.6837
G01 X2.3658 Y0.6871
G01 X2.3767 Y0.6891
G01 X2.3878 Y0.6895
G01 X2.3988 Y0.6883
G01 X2.4096 Y0.6856
G01 X2.4199 Y0.6815
G01 X2.4295 Y0.6759
G01 X2.4382 Y0.6691
G01 X2.4459 Y0.6611
G01 X2.4524 Y0.6521
G01 X2.4576 Y0.6423
G01 X2.4614 Y0.6319
G01 X2.4637 Y0.6211
G01 X2.4642 Y0.6147
G01 X2.7099 Y0.5278
G01 X2.7383 Y0.5179
G01 X2.7956 Y0.4991
G01 X2.8532 Y0.4816
G01 X2.9113 Y0.4655
G01 X2.9697 Y0.4507
G01 X3.0285 Y0.4372
G01 X3.0875 Y0.4251
G01 X3.1468 Y0.4143
G01 X3.2063 Y0.4049
G01 X3.2661 Y0.3968
G01 X3.3260 Y0.3902
G01 X3.3790 Y0.3855
G01 X3.3798 Y0.3873
G01 X3.3857 Y0.3967
G01 X3.3928 Y0.4052
G01 X3.4011 Y0.4126
G01 X3.4103 Y0.4188
G01 X3.4202 Y0.4237
G01 X3.4209 Y0.4239
G01 X3.4345 Y0.4375
G01 X3.4655 Y0.4375
G01 X3.4794 Y0.4237
G01 X3.4849 Y0.4215
G01 X3.4945 Y0.4159
G01 X3.5032 Y0.4091
G01 X3.5109 Y0.4011
G01 X3.5174 Y0.3921
G01 X3.5226 Y0.3823
G01 X3.5264 Y0.3719
G01 X3.5287 Y0.3611
G01 X3.5295 Y0.3500
G01 X3.5287 Y0.3389
G01 X3.5264 Y0.3281
G01 X3.5226 Y0.3177
G01 X3.5174 Y0.3079
G01 X3.5109 Y0.2989
G01 X3.5032 Y0.2909
G01 X3.4945 Y0.2841
G01 X3.4849 Y0.2785
G01 X3.4746 Y0.2744
G01 X3.4638 Y0.2717
G01 X3.4528 Y0.2705
G01 X3.4417 Y0.2709
G01 X3.4308 Y0.2729
G01 X3.4202 Y0.2763
G01 X3.4103 Y0.2812
G01 X3.4011 Y0.2874
G01 X3.3928 Y0.2948
G01 X3.3857 Y0.3033
G01 X3.3798 Y0.3127
G01 X3.3753 Y0.3228
G01 X3.3742 Y0.3265
G01 X3.3201 Y0.3313
G01 X3.2588 Y0.3381
G01 X3.1978 Y0.3463
G01 X3.1369 Y0.3560
G01 X3.0763 Y0.3670
G01 X3.0159 Y0.3794
G01 X2.9558 Y0.3932
G01 X2.8961 Y0.4083
G01 X2.8367 Y0.4248
G01 X2.7778 Y0.4427
G01 X2.7192 Y0.4619
G01 X2.6929 Y0.4712
G01 X2.6878 Y0.4730
G01 X2.6874 Y0.4732
G01 X2.4457 Y0.5587
G01 X2.4382 Y0.5509
G01 X2.4295 Y0.5441
G01 X2.4199 Y0.5385
G01 X2.4096 Y0.5344
G01 X2.3988 Y0.5317
G01 X2.3878 Y0.5305
G01 X2.3767 Y0.5309
G01 X2.3658 Y0.5329
G01 X2.3552 Y0.5363
G01 X2.3453 Y0.5412
G01 X2.3361 Y0.5474
G01 X2.3278 Y0.5548
M3 S115
(spindle/servo disable)
M05
(program end)
M02
